;FLAVOR:Marlin
;TIME:4241
;Filament used: 3.33946m
;Layer height: 0.2
;Generated with Cura_SteamEngine 3.2.1
M190 S60
M104 S200
M109 S200
M82 ;absolute extrusion mode
G21 ;metric values
G90 ;absolute positioning
M82 ;set extruder to absolute mode
M107 ;start with the fan off
G28 X0 Y0 ;move X/Y to min endstops
G28 Z0 ;move Z to min endstops
G1 Z15.0 F100 ;move the platform down 15mm
G92 E0 ;zero the extruded length
G1 F200 E3 ;extrude 3mm of feed stock
G92 E0 ;zero the extruded length again
G1 F100
M117 Printing...
G5
;LAYER_COUNT:21
;LAYER:0
M106 S255
M204 S3500
M205 X13 Y13
G0 F3000 X79.848 Y78.705 Z0.2
M204 S2000
;TYPE:SKIRT
G1 F2400 X80.119 Y78.449 E0.01736
G1 X81.45 Y77.263 E0.10037
G1 X81.801 Y76.972 E0.1216
G1 X83.8 Y75.431 E0.23913
G1 X84.196 Y75.149 E0.26177
G1 X85.886 Y74.04 E0.35589
G1 X86.285 Y73.799 E0.3776
G1 X88.389 Y72.628 E0.48972
G1 X88.865 Y72.388 E0.51454
G1 X91.144 Y71.358 E0.631
G1 X91.569 Y71.184 E0.65238
G1 X93.272 Y70.557 E0.73688
G1 X93.802 Y70.388 E0.76279
G1 X97.115 Y69.486 E0.92267
G1 X97.686 Y69.358 E0.94992
G1 X99.69 Y69.005 E1.04467
G1 X100.159 Y68.94 E1.06672
G1 X102.591 Y68.695 E1.18053
G1 X103.131 Y68.664 E1.20572
G1 X105.676 Y68.624 E1.32424
G1 X106.156 Y68.634 E1.34659
G1 X108.181 Y68.754 E1.44105
G1 X108.653 Y68.8 E1.46314
G1 X111.045 Y69.121 E1.57552
G1 X111.485 Y69.196 E1.5963
G1 X113.165 Y69.542 E1.67617
G1 X113.516 Y69.624 E1.69295
G1 X115.174 Y70.064 E1.77283
G1 X115.618 Y70.2 E1.79445
G1 X118.048 Y71.038 E1.91414
G1 X118.505 Y71.215 E1.93696
G1 X120.39 Y72.031 E2.03261
G1 X120.813 Y72.233 E2.05443
G1 X122.928 Y73.339 E2.16557
G1 X123.391 Y73.606 E2.19046
G1 X125.555 Y74.979 E2.30979
G1 X125.957 Y75.256 E2.33252
G1 X127.571 Y76.462 E2.42634
G1 X127.936 Y76.756 E2.44817
G1 X129.78 Y78.357 E2.56188
G1 X130.106 Y78.661 E2.58263
G1 X131.295 Y79.848 E2.66087
G1 X131.551 Y80.119 E2.67822
G1 X132.737 Y81.45 E2.76124
G1 X133.028 Y81.801 E2.78247
G1 X134.569 Y83.8 E2.9
G1 X134.851 Y84.196 E2.92263
G1 X135.96 Y85.886 E3.01676
G1 X136.201 Y86.285 E3.03846
G1 X137.372 Y88.389 E3.15058
G1 X137.612 Y88.865 E3.17541
G1 X138.642 Y91.144 E3.29186
G1 X138.816 Y91.569 E3.31325
G1 X139.443 Y93.272 E3.39775
G1 X139.612 Y93.802 E3.42365
G1 X140.514 Y97.115 E3.58353
G1 X140.642 Y97.686 E3.61078
G1 X140.995 Y99.69 E3.70553
G1 X141.06 Y100.158 E3.72753
G1 X141.305 Y102.589 E3.84131
G1 X141.336 Y103.13 E3.86654
G1 X141.376 Y105.676 E3.98511
G1 X141.366 Y106.156 E4.00746
G1 X141.246 Y108.181 E4.10192
G1 X141.2 Y108.653 E4.124
G1 X140.879 Y111.045 E4.23638
G1 X140.804 Y111.485 E4.25716
G1 X140.458 Y113.165 E4.33703
G1 X140.376 Y113.516 E4.35382
G1 X139.936 Y115.174 E4.43369
G1 X139.8 Y115.618 E4.45532
G1 X138.962 Y118.048 E4.57501
G1 X138.785 Y118.505 E4.59783
G1 X137.969 Y120.39 E4.69347
G1 X137.768 Y120.812 E4.71524
G1 X136.663 Y122.926 E4.82631
G1 X136.395 Y123.39 E4.85126
G1 X135.021 Y125.555 E4.97066
G1 X134.762 Y125.932 E4.99196
G1 X133.745 Y127.307 E5.0716
G1 X133.504 Y127.613 E5.08973
G1 X132.231 Y129.131 E5.18198
G1 X131.917 Y129.479 E5.20381
G1 X130.213 Y131.233 E5.31768
G1 X129.881 Y131.551 E5.33908
G1 X128.55 Y132.737 E5.4221
G1 X128.199 Y133.028 E5.44333
G1 X126.2 Y134.569 E5.56085
G1 X125.804 Y134.851 E5.58349
G1 X124.114 Y135.96 E5.67762
G1 X123.715 Y136.201 E5.69932
G1 X121.611 Y137.372 E5.81144
G1 X121.135 Y137.612 E5.83627
G1 X118.856 Y138.642 E5.95272
G1 X118.431 Y138.816 E5.9741
G1 X116.728 Y139.443 E6.05861
G1 X116.198 Y139.612 E6.08451
G1 X112.885 Y140.514 E6.24439
G1 X112.314 Y140.642 E6.27164
G1 X110.31 Y140.995 E6.36639
G1 X109.841 Y141.06 E6.38844
G1 X107.409 Y141.305 E6.50226
G1 X106.869 Y141.336 E6.52744
G1 X104.324 Y141.376 E6.64596
G1 X103.844 Y141.366 E6.66832
G1 X101.819 Y141.246 E6.76278
G1 X101.347 Y141.2 E6.78486
G1 X98.955 Y140.879 E6.89724
G1 X98.515 Y140.804 E6.91802
G1 X96.835 Y140.458 E6.99789
G1 X96.484 Y140.376 E7.01468
G1 X94.826 Y139.936 E7.09455
G1 X94.382 Y139.8 E7.11618
G1 X91.952 Y138.962 E7.23587
G1 X91.495 Y138.785 E7.25869
G1 X89.61 Y137.969 E7.35433
G1 X89.187 Y137.767 E7.37616
G1 X87.072 Y136.661 E7.48729
G1 X86.609 Y136.394 E7.51218
G1 X84.445 Y135.021 E7.63152
G1 X84.043 Y134.744 E7.65425
G1 X82.429 Y133.538 E7.74807
G1 X82.064 Y133.244 E7.76989
G1 X80.219 Y131.642 E7.88367
G1 X79.893 Y131.338 E7.90442
G1 X78.705 Y130.152 E7.98259
G1 X78.449 Y129.881 E7.99995
G1 X77.263 Y128.55 E8.08296
G1 X76.972 Y128.199 E8.10419
G1 X75.431 Y126.2 E8.22172
G1 X75.149 Y125.804 E8.24436
G1 X74.04 Y124.114 E8.33848
G1 X73.799 Y123.715 E8.36019
G1 X72.628 Y121.611 E8.47231
G1 X72.388 Y121.135 E8.49713
G1 X71.358 Y118.856 E8.61359
G1 X71.184 Y118.431 E8.63497
G1 X70.557 Y116.728 E8.71947
G1 X70.388 Y116.198 E8.74538
G1 X69.486 Y112.885 E8.90526
G1 X69.358 Y112.314 E8.93251
G1 X69.005 Y110.31 E9.02726
G1 X68.94 Y109.841 E9.04931
G1 X68.695 Y107.409 E9.16312
G1 X68.664 Y106.869 E9.18831
G1 X68.624 Y104.324 E9.30683
G1 X68.634 Y103.844 E9.32918
G1 X68.754 Y101.819 E9.42364
G1 X68.8 Y101.347 E9.44572
G1 X69.121 Y98.955 E9.5581
G1 X69.196 Y98.515 E9.57889
G1 X69.542 Y96.835 E9.65876
G1 X69.624 Y96.484 E9.67554
G1 X70.064 Y94.826 E9.75542
G1 X70.2 Y94.382 E9.77704
G1 X71.038 Y91.952 E9.89673
G1 X71.215 Y91.495 E9.91955
G1 X72.031 Y89.61 E10.0152
G1 X72.232 Y89.188 E10.03696
G1 X73.337 Y87.074 E10.14803
G1 X73.605 Y86.61 E10.17299
G1 X74.979 Y84.445 E10.29238
G1 X75.256 Y84.043 E10.31512
G1 X76.462 Y82.429 E10.40893
G1 X76.756 Y82.064 E10.43076
G1 X78.357 Y80.22 E10.54447
G1 X78.661 Y79.894 E10.56523
G1 X79.848 Y78.705 E10.64346
M204 S3500
G0 F3000 X80.244 Y79.101
M204 S2000
G1 F2400 X80.492 Y78.867 E10.65933
G1 X81.823 Y77.681 E10.74235
G1 X82.142 Y77.416 E10.76166
G1 X84.141 Y75.875 E10.87919
G1 X84.503 Y75.617 E10.89989
G1 X86.193 Y74.508 E10.99401
G1 X86.557 Y74.288 E11.01381
G1 X88.661 Y73.117 E11.12594
G1 X89.096 Y72.898 E11.14861
G1 X91.375 Y71.868 E11.26507
G1 X91.762 Y71.71 E11.28453
G1 X93.465 Y71.083 E11.36904
G1 X93.949 Y70.928 E11.3927
G1 X97.262 Y70.026 E11.55258
G1 X97.783 Y69.91 E11.57744
G1 X99.787 Y69.557 E11.67219
G1 X100.215 Y69.497 E11.69231
G1 X102.647 Y69.252 E11.80613
G1 X103.14 Y69.224 E11.82912
G1 X105.685 Y69.184 E11.94764
G1 X106.122 Y69.193 E11.968
G1 X108.147 Y69.313 E12.06245
G1 X108.579 Y69.355 E12.08266
G1 X110.971 Y69.676 E12.19504
G1 X111.372 Y69.744 E12.21398
G1 X113.052 Y70.09 E12.29385
G1 X113.372 Y70.165 E12.30916
G1 X115.03 Y70.605 E12.38903
G1 X115.436 Y70.729 E12.4088
G1 X117.866 Y71.567 E12.52849
G1 X118.282 Y71.729 E12.54928
G1 X120.167 Y72.545 E12.64492
G1 X120.553 Y72.729 E12.66483
G1 X122.668 Y73.835 E12.77597
G1 X123.091 Y74.079 E12.79871
G1 X125.255 Y75.452 E12.91804
G1 X125.622 Y75.705 E12.9388
G1 X127.236 Y76.911 E13.03262
G1 X127.569 Y77.179 E13.05252
G1 X129.413 Y78.78 E13.16623
G1 X129.71 Y79.057 E13.18514
G1 X130.899 Y80.244 E13.26338
G1 X131.133 Y80.492 E13.27925
G1 X132.319 Y81.823 E13.36227
G1 X132.584 Y82.142 E13.38158
G1 X134.125 Y84.141 E13.4991
G1 X134.383 Y84.503 E13.5198
G1 X135.492 Y86.193 E13.61393
G1 X135.712 Y86.557 E13.63373
G1 X136.883 Y88.661 E13.74586
G1 X137.102 Y89.096 E13.76853
G1 X138.132 Y91.375 E13.88499
G1 X138.29 Y91.762 E13.90445
G1 X138.917 Y93.465 E13.98895
G1 X139.072 Y93.949 E14.01262
G1 X139.974 Y97.262 E14.1725
G1 X140.09 Y97.783 E14.19736
G1 X140.443 Y99.787 E14.29211
G1 X140.503 Y100.214 E14.31219
G1 X140.748 Y102.645 E14.42596
G1 X140.776 Y103.139 E14.449
G1 X140.816 Y105.685 E14.56756
G1 X140.807 Y106.122 E14.58792
G1 X140.687 Y108.147 E14.68237
G1 X140.645 Y108.579 E14.70258
G1 X140.324 Y110.971 E14.81496
G1 X140.256 Y111.372 E14.8339
G1 X139.91 Y113.052 E14.91377
G1 X139.835 Y113.372 E14.92908
G1 X139.395 Y115.03 E15.00895
G1 X139.271 Y115.436 E15.02872
G1 X138.433 Y117.866 E15.14841
G1 X138.271 Y118.282 E15.1692
G1 X137.455 Y120.167 E15.26484
G1 X137.272 Y120.552 E15.28469
G1 X136.167 Y122.666 E15.39576
G1 X135.922 Y123.09 E15.41857
G1 X134.548 Y125.255 E15.53797
G1 X134.312 Y125.599 E15.55739
G1 X133.295 Y126.974 E15.63703
G1 X133.075 Y127.254 E15.65361
G1 X131.802 Y128.772 E15.74586
G1 X131.516 Y129.088 E15.7657
G1 X129.812 Y130.842 E15.87957
G1 X129.508 Y131.133 E15.89917
G1 X128.177 Y132.319 E15.98218
G1 X127.858 Y132.584 E16.00149
G1 X125.859 Y134.125 E16.11902
G1 X125.497 Y134.383 E16.13972
G1 X123.807 Y135.492 E16.23384
G1 X123.443 Y135.712 E16.25365
G1 X121.339 Y136.883 E16.36577
G1 X120.904 Y137.102 E16.38845
G1 X118.625 Y138.132 E16.5049
G1 X118.238 Y138.29 E16.52437
G1 X116.535 Y138.917 E16.60887
G1 X116.051 Y139.072 E16.63254
G1 X112.738 Y139.974 E16.79242
G1 X112.217 Y140.09 E16.81727
G1 X110.213 Y140.443 E16.91202
G1 X109.785 Y140.503 E16.93215
G1 X107.353 Y140.748 E17.04596
G1 X106.86 Y140.776 E17.06896
G1 X104.315 Y140.816 E17.18748
G1 X103.878 Y140.807 E17.20783
G1 X101.853 Y140.687 E17.30229
G1 X101.421 Y140.645 E17.3225
G1 X99.029 Y140.324 E17.43488
G1 X98.628 Y140.256 E17.45382
G1 X96.948 Y139.91 E17.53369
G1 X96.628 Y139.835 E17.54899
G1 X94.97 Y139.395 E17.62887
G1 X94.564 Y139.271 E17.64864
G1 X92.134 Y138.433 E17.76833
G1 X91.718 Y138.271 E17.78911
G1 X89.833 Y137.455 E17.88476
G1 X89.447 Y137.271 E17.90467
G1 X87.332 Y136.165 E18.01581
G1 X86.909 Y135.921 E18.03854
G1 X84.745 Y134.548 E18.15788
G1 X84.378 Y134.295 E18.17864
G1 X82.764 Y133.089 E18.27245
G1 X82.431 Y132.821 E18.29236
G1 X80.586 Y131.219 E18.40613
G1 X80.289 Y130.942 E18.42505
G1 X79.101 Y129.756 E18.50321
G1 X78.867 Y129.508 E18.51909
G1 X77.681 Y128.177 E18.6021
G1 X77.416 Y127.858 E18.62141
G1 X75.875 Y125.859 E18.73894
G1 X75.617 Y125.497 E18.75964
G1 X74.508 Y123.807 E18.85376
G1 X74.288 Y123.443 E18.87357
G1 X73.117 Y121.339 E18.98569
G1 X72.898 Y120.904 E19.00837
G1 X71.868 Y118.625 E19.12482
G1 X71.71 Y118.238 E19.14429
G1 X71.083 Y116.535 E19.22879
G1 X70.928 Y116.051 E19.25245
G1 X70.026 Y112.738 E19.41234
G1 X69.91 Y112.217 E19.43719
G1 X69.557 Y110.213 E19.53194
G1 X69.497 Y109.785 E19.55207
G1 X69.252 Y107.353 E19.66588
G1 X69.224 Y106.86 E19.68888
G1 X69.184 Y104.315 E19.8074
G1 X69.193 Y103.878 E19.82775
G1 X69.313 Y101.853 E19.92221
G1 X69.355 Y101.421 E19.94242
G1 X69.676 Y99.029 E20.0548
G1 X69.744 Y98.628 E20.07374
G1 X70.09 Y96.948 E20.15361
G1 X70.165 Y96.628 E20.16891
G1 X70.605 Y94.97 E20.24879
G1 X70.729 Y94.564 E20.26855
G1 X71.567 Y92.134 E20.38824
G1 X71.729 Y91.718 E20.40903
G1 X72.545 Y89.833 E20.50468
G1 X72.728 Y89.448 E20.52453
G1 X73.833 Y87.334 E20.6356
G1 X74.078 Y86.91 E20.6584
G1 X75.452 Y84.745 E20.7778
G1 X75.705 Y84.378 E20.79856
G1 X76.911 Y82.764 E20.89237
G1 X77.179 Y82.431 E20.91228
G1 X78.78 Y80.587 E21.02599
G1 X79.057 Y80.29 E21.0449
G1 X80.244 Y79.101 E21.12313
M204 S3500
G0 F3000 X80.64 Y79.497
M204 S2000
G1 F2400 X80.864 Y79.285 E21.13749
G1 X82.195 Y78.099 E21.22051
G1 X82.484 Y77.859 E21.238
G1 X84.483 Y76.318 E21.35553
G1 X84.81 Y76.086 E21.3742
G1 X86.5 Y74.977 E21.46832
G1 X86.829 Y74.777 E21.48625
G1 X88.933 Y73.606 E21.59837
G1 X89.326 Y73.409 E21.61884
G1 X91.605 Y72.379 E21.7353
G1 X91.956 Y72.235 E21.75296
G1 X93.659 Y71.608 E21.83746
G1 X94.096 Y71.468 E21.85883
G1 X97.409 Y70.566 E22.01871
G1 X97.88 Y70.461 E22.04118
G1 X99.884 Y70.108 E22.13594
G1 X100.271 Y70.055 E22.15412
G1 X102.703 Y69.81 E22.26794
G1 X103.149 Y69.784 E22.28874
G1 X105.694 Y69.744 E22.40727
G1 X106.089 Y69.752 E22.42566
G1 X108.114 Y69.872 E22.52012
G1 X108.504 Y69.91 E22.53837
G1 X110.896 Y70.231 E22.65075
G1 X111.259 Y70.293 E22.66789
G1 X112.939 Y70.639 E22.74776
G1 X113.228 Y70.707 E22.76159
G1 X114.886 Y71.147 E22.84146
G1 X115.253 Y71.258 E22.85932
G1 X117.683 Y72.096 E22.97901
G1 X118.06 Y72.243 E22.99785
G1 X119.945 Y73.059 E23.09349
G1 X120.294 Y73.225 E23.11149
G1 X122.409 Y74.331 E23.22263
G1 X122.791 Y74.552 E23.24318
G1 X124.955 Y75.925 E23.36251
G1 X125.286 Y76.153 E23.38123
G1 X126.9 Y77.359 E23.47504
G1 X127.202 Y77.602 E23.49309
G1 X129.046 Y79.203 E23.6068
G1 X129.314 Y79.453 E23.62387
G1 X130.503 Y80.64 E23.7021
G1 X130.715 Y80.864 E23.71646
G1 X131.901 Y82.195 E23.79948
G1 X132.141 Y82.484 E23.81697
G1 X133.682 Y84.483 E23.9345
G1 X133.914 Y84.81 E23.95317
G1 X135.023 Y86.5 E24.04729
G1 X135.223 Y86.829 E24.06522
G1 X136.394 Y88.933 E24.17734
G1 X136.591 Y89.326 E24.19781
G1 X137.621 Y91.605 E24.31427
G1 X137.765 Y91.956 E24.33193
G1 X138.392 Y93.659 E24.41643
G1 X138.532 Y94.096 E24.4378
G1 X139.434 Y97.409 E24.59768
G1 X139.539 Y97.88 E24.62015
G1 X139.892 Y99.884 E24.71491
G1 X139.945 Y100.271 E24.73309
G1 X140.19 Y102.702 E24.84686
G1 X140.216 Y103.148 E24.86767
G1 X140.256 Y105.694 E24.98623
G1 X140.248 Y106.089 E25.00463
G1 X140.128 Y108.114 E25.09909
G1 X140.09 Y108.504 E25.11734
G1 X139.769 Y110.896 E25.22972
G1 X139.707 Y111.259 E25.24686
G1 X139.361 Y112.939 E25.32673
G1 X139.293 Y113.228 E25.34056
G1 X138.853 Y114.886 E25.42043
G1 X138.742 Y115.253 E25.43829
G1 X137.904 Y117.683 E25.55798
G1 X137.757 Y118.06 E25.57682
G1 X136.941 Y119.945 E25.67246
G1 X136.775 Y120.293 E25.69042
G1 X135.67 Y122.407 E25.80149
G1 X135.449 Y122.79 E25.82208
G1 X134.075 Y124.955 E25.94148
G1 X133.862 Y125.266 E25.95903
G1 X132.845 Y126.641 E26.03867
G1 X132.646 Y126.894 E26.05366
G1 X131.373 Y128.412 E26.14591
G1 X131.114 Y128.698 E26.16387
G1 X129.41 Y130.452 E26.27774
G1 X129.136 Y130.715 E26.29543
G1 X127.805 Y131.901 E26.37844
G1 X127.516 Y132.141 E26.39593
G1 X125.517 Y133.682 E26.51346
G1 X125.19 Y133.914 E26.53213
G1 X123.5 Y135.023 E26.62625
G1 X123.171 Y135.223 E26.64418
G1 X121.067 Y136.394 E26.7563
G1 X120.674 Y136.591 E26.77677
G1 X118.395 Y137.621 E26.89323
G1 X118.044 Y137.765 E26.91089
G1 X116.341 Y138.392 E26.9954
G1 X115.904 Y138.532 E27.01676
G1 X112.591 Y139.434 E27.17665
G1 X112.12 Y139.539 E27.19912
G1 X110.116 Y139.892 E27.29387
G1 X109.729 Y139.945 E27.31206
G1 X107.297 Y140.19 E27.42587
G1 X106.851 Y140.216 E27.44668
G1 X104.306 Y140.256 E27.5652
G1 X103.911 Y140.248 E27.58359
G1 X101.886 Y140.128 E27.67805
G1 X101.496 Y140.09 E27.6963
G1 X99.104 Y139.769 E27.80868
G1 X98.741 Y139.707 E27.82583
G1 X97.061 Y139.361 E27.9057
G1 X96.772 Y139.293 E27.91952
G1 X95.114 Y138.853 E27.9994
G1 X94.747 Y138.742 E28.01725
G1 X92.317 Y137.904 E28.13694
G1 X91.94 Y137.757 E28.15578
G1 X90.055 Y136.941 E28.25143
G1 X89.706 Y136.775 E28.26942
G1 X87.591 Y135.669 E28.38056
G1 X87.209 Y135.448 E28.40111
G1 X85.045 Y134.075 E28.52044
G1 X84.714 Y133.847 E28.53916
G1 X83.1 Y132.641 E28.63298
G1 X82.798 Y132.398 E28.65103
G1 X80.953 Y130.796 E28.7648
G1 X80.685 Y130.546 E28.78187
G1 X79.497 Y129.36 E28.86003
G1 X79.285 Y129.136 E28.8744
G1 X78.099 Y127.805 E28.95741
G1 X77.859 Y127.516 E28.9749
G1 X76.318 Y125.517 E29.09243
G1 X76.086 Y125.19 E29.1111
G1 X74.977 Y123.5 E29.20522
G1 X74.777 Y123.171 E29.22315
G1 X73.606 Y121.067 E29.33527
G1 X73.409 Y120.674 E29.35574
G1 X72.379 Y118.395 E29.4722
G1 X72.235 Y118.044 E29.48986
G1 X71.608 Y116.341 E29.57437
G1 X71.468 Y115.904 E29.59573
G1 X70.566 Y112.591 E29.75562
G1 X70.461 Y112.12 E29.77809
G1 X70.108 Y110.116 E29.87284
G1 X70.055 Y109.729 E29.89103
G1 X69.81 Y107.297 E30.00484
G1 X69.784 Y106.851 E30.02565
G1 X69.744 Y104.306 E30.14417
G1 X69.752 Y103.911 E30.16256
G1 X69.872 Y101.886 E30.25702
G1 X69.91 Y101.496 E30.27527
G1 X70.231 Y99.104 E30.38765
G1 X70.293 Y98.741 E30.4048
G1 X70.639 Y97.061 E30.48466
G1 X70.707 Y96.772 E30.49849
G1 X71.147 Y95.114 E30.57837
G1 X71.258 Y94.747 E30.59622
G1 X72.096 Y92.317 E30.71591
G1 X72.243 Y91.94 E30.73475
G1 X73.059 Y90.055 E30.8304
G1 X73.225 Y89.707 E30.84835
G1 X74.33 Y87.593 E30.95942
G1 X74.551 Y87.21 E30.98001
G1 X75.925 Y85.045 E31.09941
G1 X76.153 Y84.714 E31.11813
G1 X77.359 Y83.1 E31.21195
