;FLAVOR:Marlin
;TIME:1088
;Filament used: 0.905068m
;Layer height: 0.2
;Generated with Cura_SteamEngine 3.2.1
M190 S60
M104 S200
M109 S200
M82 ;absolute extrusion mode
G21 ;metric values
G90 ;absolute positioning
M82 ;set extruder to absolute mode
M107 ;start with the fan off
G28 X0 Y0 ;move X/Y to min endstops
G28 Z0 ;move Z to min endstops
G1 Z15.0 F100 ;move the platform down 15mm
G92 E0 ;zero the extruded length
G1 F200 E3 ;extrude 3mm of feed stock
G92 E0 ;zero the extruded length again
G1 F100
M117 Printing...
G5
;LAYER_COUNT:116
;LAYER:0
M106 S255
M204 S3500
M205 X13 Y13
G0 F3000 X95.687 Y88.306 Z0.2
M204 S2000
;TYPE:SKIRT
G1 F2400 X96.522 Y87.395 E0.05754
G1 X97.039 Y86.891 E0.09116
G1 X98.039 Y86.021 E0.15288
G1 X98.604 Y85.582 E0.1862
G1 X99.39 Y85.119 E0.22868
G1 X100.512 Y84.561 E0.28703
G1 X101.169 Y84.278 E0.32034
G1 X102.035 Y84.03 E0.36228
G1 X103.248 Y83.773 E0.42002
G1 X103.955 Y83.664 E0.45333
G1 X104.843 Y83.64 E0.49469
G1 X106.108 Y83.693 E0.55365
G1 X106.82 Y83.762 E0.58696
G1 X107.698 Y83.963 E0.6289
G1 X108.888 Y84.324 E0.6868
G1 X109.56 Y84.569 E0.72011
G1 X110.345 Y84.974 E0.76124
G1 X111.415 Y85.622 E0.81949
G1 X112.005 Y86.026 E0.85278
G1 X112.39 Y86.347 E0.87612
G1 X112.897 Y86.805 E0.90794
G1 X113.329 Y87.234 E0.93629
G1 X116.695 Y90.913 E1.16848
G1 X118.498 Y92.728 E1.28761
G1 X122.915 Y96.821 E1.56801
G1 X123.412 Y97.336 E1.60133
G1 X123.657 Y97.639 E1.61948
G1 X124.397 Y98.611 E1.67636
G1 X124.798 Y99.204 E1.7097
G1 X125.201 Y99.998 E1.75116
G1 X125.699 Y101.177 E1.81075
G1 X125.94 Y101.85 E1.84404
G1 X126.137 Y102.751 E1.88699
G1 X126.318 Y104.003 E1.94589
G1 X126.381 Y104.716 E1.97922
G1 X126.347 Y105.607 E2.02074
G1 X126.214 Y106.837 E2.07835
G1 X126.097 Y107.543 E2.11167
G1 X125.848 Y108.385 E2.15255
G1 X125.417 Y109.541 E2.21
G1 X125.13 Y110.196 E2.2433
G1 X124.681 Y110.95 E2.28416
G1 X123.973 Y111.972 E2.34206
G1 X123.533 Y112.536 E2.37537
G1 X123.067 Y113.017 E2.40655
G1 X119.057 Y116.741 E2.66137
G1 X115.328 Y120.553 E2.90968
G1 X114.381 Y121.619 E2.97608
G1 X114.313 Y121.694 E2.98079
G1 X113.478 Y122.605 E3.03833
G1 X112.961 Y123.109 E3.07195
G1 X111.961 Y123.979 E3.13367
G1 X111.396 Y124.418 E3.16699
G1 X110.61 Y124.881 E3.20947
G1 X109.488 Y125.439 E3.26782
G1 X108.831 Y125.722 E3.30113
G1 X107.965 Y125.97 E3.34307
G1 X106.752 Y126.227 E3.40081
G1 X106.045 Y126.336 E3.43412
G1 X105.556 Y126.365 E3.45693
G1 X104.922 Y126.378 E3.48646
G1 X104.207 Y126.352 E3.51977
G1 X103.723 Y126.289 E3.5425
G1 X102.488 Y126.08 E3.60082
G1 X101.791 Y125.922 E3.6341
G1 X100.954 Y125.617 E3.67558
G1 X99.817 Y125.111 E3.73353
G1 X99.181 Y124.784 E3.76683
G1 X98.435 Y124.273 E3.80894
G1 X97.419 Y123.465 E3.86938
G1 X96.885 Y122.989 E3.90269
G1 X96.617 Y122.704 E3.92091
G1 X95.19 Y121.096 E4.02102
G1 X91.454 Y117.227 E4.27146
G1 X87.083 Y113.176 E4.54896
G1 X86.586 Y112.662 E4.58225
G1 X86.338 Y112.355 E4.60063
G1 X85.599 Y111.383 E4.65748
G1 X85.199 Y110.791 E4.69075
G1 X84.798 Y109.998 E4.73213
G1 X84.3 Y108.818 E4.79177
G1 X84.059 Y108.145 E4.82506
G1 X83.861 Y107.243 E4.86806
G1 X83.681 Y105.994 E4.92682
G1 X83.619 Y105.281 E4.96014
G1 X83.653 Y104.39 E5.00166
G1 X83.787 Y103.157 E5.05941
G1 X83.904 Y102.451 E5.09274
G1 X84.153 Y101.612 E5.13349
G1 X84.583 Y100.459 E5.19079
G1 X84.87 Y99.803 E5.22413
G1 X85.319 Y99.05 E5.26495
G1 X86.027 Y98.028 E5.32284
G1 X86.467 Y97.464 E5.35615
G1 X86.933 Y96.983 E5.38734
G1 X90.943 Y93.259 E5.64216
G1 X94.672 Y89.447 E5.89047
G1 X95.619 Y88.381 E5.95687
G1 X95.687 Y88.306 E5.96158
M204 S3500
G0 F3000 X96.1 Y88.684
M204 S2000
G1 F2400 X96.935 Y87.773 E6.01912
G1 X97.407 Y87.313 E6.04981
G1 X98.407 Y86.443 E6.11153
G1 X98.948 Y86.026 E6.14334
G1 X99.639 Y85.62 E6.18066
G1 X100.761 Y85.062 E6.23901
G1 X101.39 Y84.794 E6.27084
G1 X102.152 Y84.578 E6.30772
G1 X103.365 Y84.321 E6.36546
G1 X104.04 Y84.219 E6.39725
G1 X104.819 Y84.199 E6.43353
G1 X106.084 Y84.252 E6.49249
G1 X106.764 Y84.321 E6.52431
G1 X107.535 Y84.498 E6.56115
G1 X108.725 Y84.859 E6.61905
G1 X109.366 Y85.096 E6.65088
G1 X110.055 Y85.453 E6.68701
G1 X111.125 Y86.101 E6.74526
G1 X111.688 Y86.488 E6.77707
G1 X112.015 Y86.762 E6.79693
G1 X112.522 Y87.22 E6.82875
G1 X112.916 Y87.612 E6.85463
G1 X116.292 Y91.303 E7.08755
G1 X118.115 Y93.138 E7.20799
G1 X122.534 Y97.232 E7.48849
G1 X123.212 Y97.978 E7.53543
G1 X123.952 Y98.95 E7.59232
G1 X124.333 Y99.517 E7.62413
G1 X124.685 Y100.216 E7.66057
G1 X125.183 Y101.395 E7.72016
G1 X125.411 Y102.038 E7.75193
G1 X125.583 Y102.831 E7.78971
G1 X125.764 Y104.083 E7.84862
G1 X125.822 Y104.764 E7.88044
G1 X125.79 Y105.547 E7.91693
G1 X125.657 Y106.777 E7.97454
G1 X125.544 Y107.451 E8.00636
G1 X125.323 Y108.189 E8.04224
G1 X124.892 Y109.345 E8.09968
G1 X124.616 Y109.97 E8.1315
G1 X124.221 Y110.631 E8.16735
G1 X123.513 Y111.653 E8.22525
G1 X123.091 Y112.191 E8.25708
G1 X122.686 Y112.607 E8.28412
G1 X118.671 Y116.335 E8.53924
G1 X114.914 Y120.175 E8.78939
G1 X113.962 Y121.248 E8.85619
G1 X113.9 Y121.316 E8.86047
G1 X113.065 Y122.227 E8.91801
G1 X112.593 Y122.687 E8.9487
G1 X111.593 Y123.557 E9.01042
G1 X111.052 Y123.974 E9.04223
G1 X110.361 Y124.38 E9.07955
G1 X109.239 Y124.938 E9.1379
G1 X108.61 Y125.206 E9.16973
G1 X107.848 Y125.422 E9.20661
G1 X106.635 Y125.679 E9.26435
G1 X105.96 Y125.781 E9.29614
G1 X105.545 Y125.805 E9.31549
G1 X104.911 Y125.818 E9.34502
G1 X104.228 Y125.792 E9.37685
G1 X103.817 Y125.737 E9.39616
G1 X102.582 Y125.528 E9.45448
G1 X101.916 Y125.375 E9.4863
G1 X101.182 Y125.105 E9.52272
G1 X100.045 Y124.599 E9.58067
G1 X99.438 Y124.286 E9.61247
G1 X98.784 Y123.835 E9.64946
G1 X97.768 Y123.027 E9.70991
G1 X97.035 Y122.333 E9.75691
G1 X95.581 Y120.694 E9.85893
G1 X91.852 Y116.832 E10.10891
G1 X87.464 Y112.766 E10.38747
G1 X86.784 Y112.017 E10.43457
G1 X86.045 Y111.045 E10.49143
G1 X85.664 Y110.477 E10.52328
G1 X85.314 Y109.781 E10.55955
G1 X84.816 Y108.601 E10.61919
G1 X84.587 Y107.957 E10.65102
G1 X84.416 Y107.163 E10.68884
G1 X84.236 Y105.914 E10.7476
G1 X84.178 Y105.233 E10.77942
G1 X84.21 Y104.45 E10.81591
G1 X84.344 Y103.217 E10.87366
G1 X84.458 Y102.543 E10.90549
G1 X84.678 Y101.807 E10.94126
G1 X85.108 Y100.654 E10.99856
G1 X85.384 Y100.029 E11.03038
G1 X85.779 Y99.369 E11.06619
G1 X86.487 Y98.347 E11.12409
G1 X86.909 Y97.809 E11.15592
G1 X87.314 Y97.393 E11.18296
G1 X91.329 Y93.665 E11.43808
G1 X95.086 Y89.825 E11.68823
G1 X96.038 Y88.752 E11.75503
G1 X96.1 Y88.684 E11.75931
M204 S3500
G0 F3000 X96.513 Y89.062
M204 S2000
G1 F2400 X97.348 Y88.151 E11.81685
G1 X97.774 Y87.736 E11.84455
G1 X98.774 Y86.866 E11.90627
G1 X99.29 Y86.47 E11.93655
G1 X99.889 Y86.121 E11.96883
G1 X101.011 Y85.563 E12.02718
G1 X101.609 Y85.31 E12.05742
G1 X102.268 Y85.126 E12.08928
G1 X103.481 Y84.869 E12.14701
G1 X104.123 Y84.773 E12.17724
G1 X104.796 Y84.759 E12.20858
G1 X106.061 Y84.812 E12.26754
G1 X106.707 Y84.879 E12.29778
G1 X107.373 Y85.034 E12.32962
G1 X108.563 Y85.395 E12.38753
G1 X109.172 Y85.622 E12.41779
G1 X109.765 Y85.932 E12.44895
G1 X110.835 Y86.58 E12.5072
G1 X111.369 Y86.95 E12.53745
G1 X111.639 Y87.178 E12.5539
G1 X112.146 Y87.636 E12.58572
G1 X112.503 Y87.99 E12.60913
G1 X115.89 Y91.692 E12.84277
G1 X117.721 Y93.536 E12.96377
G1 X122.154 Y97.643 E13.24516
G1 X122.766 Y98.318 E13.28759
G1 X123.506 Y99.29 E13.34448
G1 X123.867 Y99.83 E13.37472
G1 X124.169 Y100.434 E13.40617
G1 X124.667 Y101.613 E13.46576
G1 X124.882 Y102.225 E13.49597
G1 X125.029 Y102.912 E13.52868
G1 X125.21 Y104.164 E13.58758
G1 X125.263 Y104.811 E13.61781
G1 X125.233 Y105.487 E13.64932
G1 X125.1 Y106.717 E13.70693
G1 X124.991 Y107.357 E13.73716
G1 X124.798 Y107.994 E13.76815
G1 X124.367 Y109.15 E13.8256
G1 X124.103 Y109.743 E13.85582
G1 X123.76 Y110.312 E13.88676
G1 X123.052 Y111.334 E13.94465
G1 X122.65 Y111.844 E13.97489
G1 X122.305 Y112.196 E13.99784
G1 X118.275 Y115.938 E14.25392
G1 X114.511 Y119.786 E14.50456
G1 X113.543 Y120.876 E14.57245
G1 X113.487 Y120.938 E14.57634
G1 X112.652 Y121.849 E14.63388
G1 X112.226 Y122.264 E14.66157
G1 X111.226 Y123.134 E14.72329
G1 X110.71 Y123.53 E14.75358
G1 X110.111 Y123.879 E14.78586
G1 X108.989 Y124.437 E14.84421
G1 X108.391 Y124.69 E14.87444
G1 X107.732 Y124.874 E14.9063
G1 X106.519 Y125.131 E14.96404
G1 X105.877 Y125.227 E14.99427
G1 X105.533 Y125.245 E15.01031
G1 X104.899 Y125.258 E15.03983
G1 X104.25 Y125.231 E15.07008
G1 X103.91 Y125.185 E15.08606
G1 X102.675 Y124.976 E15.14438
G1 X102.042 Y124.828 E15.17465
G1 X101.409 Y124.594 E15.20608
G1 X100.272 Y124.088 E15.26402
G1 X99.696 Y123.788 E15.29427
G1 X99.133 Y123.396 E15.32621
G1 X98.117 Y122.588 E15.38666
G1 X97.454 Y121.961 E15.42915
G1 X95.995 Y120.317 E15.5315
G1 X92.248 Y116.436 E15.78269
G1 X87.844 Y112.355 E16.06227
G1 X87.23 Y111.678 E16.10483
G1 X86.491 Y110.706 E16.16169
G1 X86.13 Y110.165 E16.19197
G1 X85.829 Y109.563 E16.22331
G1 X85.331 Y108.383 E16.28295
G1 X85.116 Y107.77 E16.3132
G1 X84.97 Y107.083 E16.3459
G1 X84.79 Y105.834 E16.40466
G1 X84.737 Y105.187 E16.43489
G1 X84.767 Y104.511 E16.4664
G1 X84.901 Y103.278 E16.52415
G1 X85.011 Y102.637 E16.55443
G1 X85.203 Y102.003 E16.58528
G1 X85.633 Y100.85 E16.64258
G1 X85.897 Y100.256 E16.67285
G1 X86.24 Y99.688 E16.70375
G1 X86.948 Y98.666 E16.76164
G1 X87.35 Y98.156 E16.79188
G1 X87.695 Y97.804 E16.81483
G1 X91.725 Y94.062 E17.0709
G1 X95.489 Y90.214 E17.32155
G1 X96.457 Y89.124 E17.38943
G1 X96.513 Y89.062 E17.39332
M204 S3500
G1 F2400 E10.39332
G0 F3000 X100.804 Y91.201
G0 X101.978 Y92.17
G0 X105.687 Y91.469
M204 S2000
;TYPE:WALL-INNER
G1 F2400 E17.39332
G1 F1500 X106.107 Y91.577 E17.41351
G1 X106.531 Y91.744 E17.43473
G1 X106.924 Y91.961 E17.45564
G1 X107.29 Y92.226 E17.47668
G1 X107.63 Y92.544 E17.49835
G1 X107.911 Y92.886 E17.51896
G1 X108.15 Y93.261 E17.53967
G1 X108.346 Y93.677 E17.56108
G1 X108.482 Y94.101 E17.58182
G1 X108.569 Y94.554 E17.6033
G1 X108.598 Y95 E17.62411
G1 X108.569 Y95.446 E17.64492
G1 X108.482 Y95.899 E17.6664
G1 X108.346 Y96.323 E17.68713
G1 X108.15 Y96.739 E17.70855
G1 X107.911 Y97.114 E17.72925
G1 X107.63 Y97.456 E17.74986
G1 X107.29 Y97.774 E17.77154
G1 X106.924 Y98.039 E17.79258
G1 X106.531 Y98.256 E17.81349
G1 X106.107 Y98.423 E17.83471
G1 X105.687 Y98.531 E17.8549
G1 X105.219 Y98.59 E17.87686
G1 X104.781 Y98.59 E17.89726
G1 X104.313 Y98.531 E17.91922
G1 X103.893 Y98.423 E17.93942
G1 X103.469 Y98.256 E17.96064
G1 X103.076 Y98.039 E17.98154
G1 X102.71 Y97.774 E18.00258
G1 X102.37 Y97.456 E18.02426
G1 X102.089 Y97.114 E18.04487
G1 X101.85 Y96.739 E18.06557
G1 X101.654 Y96.323 E18.08699
G1 X101.518 Y95.899 E18.10772
G1 X101.431 Y95.446 E18.1292
G1 X101.402 Y95 E18.15001
G1 X101.431 Y94.554 E18.17082
G1 X101.518 Y94.101 E18.1923
G1 X101.654 Y93.677 E18.21304
G1 X101.85 Y93.261 E18.23445
G1 X102.089 Y92.886 E18.25516
G1 X102.37 Y92.544 E18.27577
G1 X102.71 Y92.226 E18.29744
G1 X103.076 Y91.961 E18.31848
G1 X103.469 Y91.744 E18.33939
G1 X103.893 Y91.577 E18.36061
G1 X104.313 Y91.469 E18.3808
G1 X104.781 Y91.41 E18.40277
G1 X105.219 Y91.41 E18.42316
G1 X105.687 Y91.469 E18.44513
M204 S3500
G0 F3000 X105.788 Y90.917
M204 S2000
G1 F1500 X106.281 Y91.044 E18.46883
G1 X106.773 Y91.238 E18.49346
G1 X107.222 Y91.485 E18.51732
G1 X107.65 Y91.796 E18.54196
G1 X108.036 Y92.157 E18.56656
G1 X108.365 Y92.557 E18.59068
G1 X108.644 Y92.995 E18.61486
G1 X108.867 Y93.468 E18.63921
G1 X109.026 Y93.962 E18.66338
G1 X109.126 Y94.483 E18.68808
G1 X109.159 Y95 E18.7122
G1 X109.126 Y95.517 E18.73633
G1 X109.026 Y96.038 E18.76103
G1 X108.867 Y96.532 E18.78519
G1 X108.644 Y97.005 E18.80954
G1 X108.365 Y97.443 E18.83372
G1 X108.036 Y97.843 E18.85784
G1 X107.65 Y98.204 E18.88245
G1 X107.222 Y98.515 E18.90709
G1 X106.773 Y98.762 E18.93095
G1 X106.281 Y98.956 E18.95557
G1 X105.788 Y99.083 E18.97928
G1 X105.257 Y99.15 E19.0042
G1 X104.743 Y99.15 E19.02813
G1 X104.212 Y99.083 E19.05306
G1 X103.719 Y98.956 E19.07676
G1 X103.227 Y98.762 E19.10139
G1 X102.778 Y98.515 E19.12525
G1 X102.35 Y98.204 E19.14989
G1 X101.964 Y97.843 E19.17449
G1 X101.635 Y97.443 E19.19861
G1 X101.356 Y97.005 E19.22279
G1 X101.133 Y96.532 E19.24714
G1 X100.974 Y96.038 E19.27131
G1 X100.874 Y95.517 E19.29601
G1 X100.841 Y95 E19.32013
G1 X100.874 Y94.483 E19.34426
G1 X100.974 Y93.962 E19.36896
G1 X101.133 Y93.468 E19.39312
G1 X101.356 Y92.995 E19.41747
G1 X101.635 Y92.557 E19.44165
G1 X101.964 Y92.157 E19.46577
G1 X102.35 Y91.796 E19.49038
G1 X102.778 Y91.485 E19.51502
G1 X103.227 Y91.238 E19.53888
G1 X103.719 Y91.044 E19.5635
G1 X104.212 Y90.917 E19.58721
G1 X104.743 Y90.85 E19.61213
G1 X105.257 Y90.85 E19.63607
G1 X105.788 Y90.917 E19.66099
M204 S3500
G0 F3000 X105.887 Y90.365
M204 S2000
;TYPE:WALL-OUTER
G1 F1500 X106.46 Y90.512 E19.68853
G1 X107.009 Y90.729 E19.71602
G1 X107.523 Y91.011 E19.74332
G1 X108.011 Y91.366 E19.77142
G1 X108.442 Y91.77 E19.79893
G1 X108.819 Y92.227 E19.82651
G1 X109.137 Y92.726 E19.85407
G1 X109.389 Y93.262 E19.88165
G1 X109.57 Y93.823 E19.90909
G1 X109.683 Y94.412 E19.93702
G1 X109.72 Y95 E19.96445
G1 X109.683 Y95.588 E19.99189
G1 X109.57 Y96.177 E20.01981
G1 X109.389 Y96.738 E20.04726
G1 X109.137 Y97.274 E20.07484
G1 X108.819 Y97.773 E20.10239
G1 X108.442 Y98.23 E20.12998
G1 X108.011 Y98.634 E20.15749
G1 X107.523 Y98.989 E20.18559
G1 X107.009 Y99.271 E20.21289
G1 X106.46 Y99.488 E20.24038
G1 X105.887 Y99.635 E20.26792
G1 X105.295 Y99.71 E20.29571
G1 X104.705 Y99.71 E20.32318
G1 X104.113 Y99.635 E20.35097
G1 X103.54 Y99.488 E20.37851
G1 X102.991 Y99.271 E20.406
G1 X102.477 Y98.989 E20.4333
G1 X101.989 Y98.634 E20.4614
G1 X101.558 Y98.23 E20.48891
G1 X101.181 Y97.773 E20.51649
G1 X100.863 Y97.274 E20.54405
G1 X100.611 Y96.738 E20.57163
G1 X100.43 Y96.177 E20.59907
G1 X100.317 Y95.588 E20.627
G1 X100.28 Y95 E20.65443
G1 X100.317 Y94.412 E20.68187
G1 X100.43 Y93.823 E20.70979
G1 X100.611 Y93.262 E20.73724
G1 X100.863 Y92.726 E20.76482
G1 X101.181 Y92.227 E20.79237
G1 X101.558 Y91.77 E20.81996
G1 X101.989 Y91.366 E20.84747
G1 X102.477 Y91.011 E20.87557
G1 X102.991 Y90.729 E20.90287
G1 X103.54 Y90.512 E20.93036
G1 X104.113 Y90.365 E20.9579
G1 X104.705 Y90.29 E20.98569
G1 X105.295 Y90.29 E21.01316
G1 X105.887 Y90.365 E21.04095
M204 S3500
G0 F3000 X106.08 Y90.414
G0 X105.916 Y91.052
G0 X105.584 Y92.011
M204 S2000
;TYPE:SKIN
G1 F1500 X105.936 Y92.101 E21.05786
G1 X106.298 Y92.244 E21.07599
G1 X106.63 Y92.427 E21.09364
G1 X106.945 Y92.655 E21.11175
G1 X107.223 Y92.915 E21.12947
G1 X107.465 Y93.21 E21.14724
G1 X107.67 Y93.531 E21.16497
G1 X107.829 Y93.87 E21.18241
G1 X107.949 Y94.243 E21.20065
G1 X108.023 Y94.629 E21.21896
G1 X108.048 Y95 E21.23627
G1 X108.023 Y95.371 E21.25358
G1 X107.949 Y95.757 E21.27189
G1 X107.829 Y96.13 E21.29013
G1 X107.67 Y96.469 E21.30757
G1 X107.465 Y96.79 E21.3253
G1 X107.223 Y97.085 E21.34307
G1 X106.945 Y97.345 E21.36079
G1 X106.63 Y97.573 E21.3789
G1 X106.298 Y97.756 E21.39655
G1 X105.936 Y97.899 E21.41467
G1 X105.584 Y97.989 E21.43159
G1 X105.182 Y98.04 E21.45046
G1 X104.818 Y98.04 E21.46741
G1 X104.416 Y97.989 E21.48628
G1 X104.064 Y97.899 E21.5032
G1 X103.702 Y97.756 E21.52132
G1 X103.37 Y97.573 E21.53897
G1 X103.055 Y97.345 E21.55708
G1 X102.777 Y97.085 E21.5748
G1 X102.535 Y96.79 E21.59257
G1 X102.33 Y96.469 E21.61031
G1 X102.171 Y96.13 E21.62774
G1 X102.051 Y95.757 E21.64599
G1 X101.977 Y95.371 E21.66429
G1 X101.952 Y95 E21.6816
G1 X101.977 Y94.629 E21.69892
G1 X102.051 Y94.243 E21.71722
G1 X102.171 Y93.87 E21.73546
G1 X102.33 Y93.531 E21.7529
G1 X102.535 Y93.21 E21.77063
G1 X102.777 Y92.915 E21.7884
G1 X103.055 Y92.655 E21.80613
G1 X103.37 Y92.427 E21.82423
G1 X103.702 Y92.244 E21.84188
G1 X104.064 Y92.101 E21.86001
