;FLAVOR:Marlin
;TIME:6217
;Filament used: 6.49304m
;Layer height: 0.2
;Generated with Cura_SteamEngine 3.2.1
M190 S60
M104 S200
M109 S200
M82 ;absolute extrusion mode
G21 ;metric values
G90 ;absolute positioning
M82 ;set extruder to absolute mode
M107 ;start with the fan off
G28 X0 Y0 ;move X/Y to min endstops
G28 Z0 ;move Z to min endstops
G1 Z15.0 F100 ;move the platform down 15mm
G92 E0 ;zero the extruded length
G1 F200 E3 ;extrude 3mm of feed stock
G92 E0 ;zero the extruded length again
G1 F100
M117 Printing...
G5
;LAYER_COUNT:86
;LAYER:0
M106 S255
M204 S3500
M205 X13 Y13
G0 F3000 X30.132 Y89.279 Z0.2
M204 S2000
;TYPE:SKIRT
G1 F2400 X30.818 Y89.078 E0.03329
G1 X31.523 Y88.956 E0.0666
G1 X32.227 Y88.912 E0.09945
G1 X34.108 Y88.9 E0.18704
G1 X34.37 Y88.904 E0.19924
G1 X39.756 Y89.09 E0.45018
G1 X171.057 Y89.1 E6.56411
G1 X178.699 Y88.912 E6.92006
G1 X179.414 Y88.934 E6.95337
G1 X180.121 Y89.036 E6.98663
G1 X180.814 Y89.217 E7.01998
G1 X181.481 Y89.473 E7.05325
G1 X182.116 Y89.803 E7.08657
G1 X182.71 Y90.201 E7.11986
G1 X183.256 Y90.663 E7.15317
G1 X183.547 Y90.956 E7.1724
G1 X183.754 Y91.179 E7.18656
G1 X184.21 Y91.73 E7.21987
G1 X184.602 Y92.328 E7.25316
G1 X184.926 Y92.966 E7.28648
G1 X185.175 Y93.636 E7.31976
G1 X185.349 Y94.33 E7.35308
G1 X185.444 Y95.039 E7.38639
G1 X185.463 Y95.519 E7.40876
G1 X185.485 Y105.443 E7.87086
G1 X185.447 Y106.157 E7.90416
G1 X185.329 Y106.863 E7.93749
G1 X185.133 Y107.55 E7.97075
G1 X184.862 Y108.212 E8.00406
G1 X184.518 Y108.84 E8.0374
G1 X184.107 Y109.425 E8.07069
G1 X183.669 Y109.923 E8.10158
G1 X183.443 Y110.155 E8.11666
G1 X182.916 Y110.638 E8.14994
G1 X182.339 Y111.06 E8.18323
G1 X181.718 Y111.415 E8.21654
G1 X181.061 Y111.698 E8.24985
G1 X180.377 Y111.906 E8.28314
G1 X179.673 Y112.037 E8.31648
G1 X178.701 Y112.087 E8.3618
G1 X171.114 Y111.9 E8.71519
G1 X110.759 Y111.94 E11.52557
G1 X105.46 Y112.24 E11.77271
G1 X100.211 Y112.836 E12.0187
G1 X94.949 Y113.738 E12.26729
G1 X92.406 Y114.286 E12.38842
G1 X89.881 Y114.904 E12.50947
G1 X84.739 Y116.398 E12.7588
G1 X79.752 Y118.159 E13.00507
G1 X74.496 Y120.351 E13.27024
G1 X73.822 Y120.589 E13.30353
G1 X73.125 Y120.75 E13.33684
G1 X72.67 Y120.812 E13.35822
G1 X72.13 Y120.866 E13.38349
G1 X71.491 Y120.898 E13.41328
G1 X49.331 Y120.89 E14.44514
G1 X48.617 Y120.85 E14.47844
G1 X47.911 Y120.73 E14.51179
G1 X47.224 Y120.533 E14.54507
G1 X46.563 Y120.259 E14.57839
G1 X45.728 Y119.778 E14.62326
G1 X42.563 Y117.62 E14.80163
G1 X38.033 Y114.831 E15.04934
G1 X33.316 Y112.285 E15.29893
G1 X29.39 Y110.37 E15.50233
G1 X28.765 Y110.021 E15.53567
G1 X28.184 Y109.605 E15.56894
G1 X27.569 Y109.041 E15.6078
G1 X27.416 Y108.881 E15.6181
G1 X26.952 Y108.337 E15.6514
G1 X26.551 Y107.745 E15.68469
G1 X26.218 Y107.112 E15.718
G1 X25.958 Y106.445 E15.75133
G1 X25.775 Y105.754 E15.78462
G1 X25.669 Y105.047 E15.81791
G1 X25.642 Y104.458 E15.84536
G1 X25.642 Y95.539 E16.26067
G1 X25.682 Y94.825 E16.29397
G1 X25.801 Y94.12 E16.32726
G1 X25.999 Y93.432 E16.36059
G1 X26.272 Y92.771 E16.39389
G1 X26.616 Y92.144 E16.4272
G1 X27.029 Y91.56 E16.4605
G1 X27.507 Y91.024 E16.49394
G1 X27.733 Y90.797 E16.50886
G1 X28.265 Y90.319 E16.54216
G1 X28.847 Y89.903 E16.57547
G1 X29.472 Y89.555 E16.60878
G1 X30.132 Y89.279 E16.64209
M204 S3500
G0 F3000 X30.434 Y89.767
M204 S2000
G1 F2400 X31.095 Y89.591 E16.67395
G1 X31.771 Y89.493 E16.70575
G1 X32.231 Y89.472 E16.72719
G1 X34.112 Y89.46 E16.81478
G1 X34.351 Y89.463 E16.82591
G1 X39.766 Y89.65 E17.07821
G1 X171.069 Y89.66 E23.19223
G1 X178.712 Y89.472 E23.54822
G1 X179.395 Y89.495 E23.58004
G1 X180.071 Y89.598 E23.61189
G1 X180.73 Y89.779 E23.64371
G1 X181.363 Y90.035 E23.6755
G1 X181.962 Y90.364 E23.70732
G1 X182.518 Y90.761 E23.73914
G1 X183.136 Y91.337 E23.77847
G1 X183.343 Y91.56 E23.79264
G1 X183.778 Y92.087 E23.82446
G1 X184.148 Y92.661 E23.85626
G1 X184.449 Y93.275 E23.8881
G1 X184.676 Y93.919 E23.9199
G1 X184.826 Y94.586 E23.95173
G1 X184.903 Y95.52 E23.99537
G1 X184.925 Y105.444 E24.45747
G1 X184.887 Y106.126 E24.48928
G1 X184.769 Y106.799 E24.5211
G1 X184.573 Y107.454 E24.55293
G1 X184.302 Y108.081 E24.58474
G1 X183.96 Y108.672 E24.61653
G1 X183.551 Y109.22 E24.64837
G1 X183.268 Y109.532 E24.66799
G1 X183.042 Y109.764 E24.68307
G1 X182.538 Y110.225 E24.71487
G1 X181.983 Y110.623 E24.74668
G1 X181.385 Y110.954 E24.7785
G1 X180.753 Y111.213 E24.81031
G1 X180.095 Y111.397 E24.84212
G1 X179.42 Y111.502 E24.87393
G1 X178.715 Y111.527 E24.90678
G1 X171.128 Y111.34 E25.26017
G1 X110.744 Y111.38 E28.0719
G1 X105.418 Y111.682 E28.3203
G1 X100.123 Y112.283 E28.56844
G1 X94.832 Y113.19 E28.8184
G1 X92.299 Y113.735 E28.93905
G1 X89.727 Y114.366 E29.06237
G1 X84.578 Y115.862 E29.31204
G1 X79.549 Y117.637 E29.56037
G1 X74.281 Y119.834 E29.82615
G1 X73.636 Y120.06 E29.85797
G1 X72.969 Y120.208 E29.88978
G1 X72.614 Y120.255 E29.90646
G1 X72.074 Y120.309 E29.93173
G1 X71.491 Y120.338 E29.95891
G1 X49.331 Y120.33 E30.99077
G1 X48.649 Y120.29 E31.02258
G1 X47.976 Y120.17 E31.05441
G1 X47.322 Y119.973 E31.08622
G1 X46.695 Y119.7 E31.11806
G1 X46.043 Y119.315 E31.15332
G1 X42.871 Y117.153 E31.33207
G1 X38.307 Y114.342 E31.58166
G1 X33.587 Y111.794 E31.83142
G1 X29.635 Y109.867 E32.03616
G1 X29.04 Y109.532 E32.06795
G1 X28.487 Y109.13 E32.09979
G1 X27.974 Y108.654 E32.13237
G1 X27.821 Y108.494 E32.14268
G1 X27.379 Y107.974 E32.17446
G1 X27 Y107.405 E32.20629
G1 X26.69 Y106.796 E32.23811
G1 X26.454 Y106.155 E32.26992
G1 X26.294 Y105.491 E32.30172
G1 X26.213 Y104.812 E32.33356
G1 X26.202 Y104.458 E32.35006
G1 X26.202 Y95.539 E32.76536
G1 X26.242 Y94.857 E32.79717
G1 X26.361 Y94.184 E32.829
G1 X26.558 Y93.53 E32.8608
G1 X26.831 Y92.903 E32.89265
G1 X27.174 Y92.313 E32.92442
G1 X27.584 Y91.766 E32.95625
G1 X27.903 Y91.419 E32.9782
G1 X28.129 Y91.192 E32.99312
G1 X28.639 Y90.736 E33.02497
G1 X29.198 Y90.344 E33.05677
G1 X29.799 Y90.019 E33.08858
G1 X30.434 Y89.767 E33.12039
M204 S3500
G0 F3000 X30.732 Y90.26
M204 S2000
G1 F2400 X31.364 Y90.11 E33.15064
G1 X32.234 Y90.032 E33.19131
G1 X34.115 Y90.02 E33.2789
G1 X34.331 Y90.023 E33.28896
G1 X39.746 Y90.21 E33.54125
G1 X171.083 Y90.22 E39.65686
G1 X178.726 Y90.032 E40.01285
G1 X179.375 Y90.056 E40.04309
G1 X180.017 Y90.159 E40.07337
G1 X180.64 Y90.341 E40.10359
G1 X181.237 Y90.597 E40.13384
G1 X181.798 Y90.925 E40.1641
G1 X182.314 Y91.32 E40.19436
G1 X182.726 Y91.718 E40.22103
G1 X182.933 Y91.941 E40.2352
G1 X183.345 Y92.443 E40.26544
G1 X183.692 Y92.992 E40.29568
G1 X183.969 Y93.58 E40.32595
G1 X184.171 Y94.197 E40.35618
G1 X184.297 Y94.835 E40.38646
G1 X184.343 Y95.521 E40.41847
G1 X184.365 Y105.445 E40.88058
G1 X184.326 Y106.094 E40.91085
G1 X184.209 Y106.733 E40.9411
G1 X184.013 Y107.352 E40.97134
G1 X183.743 Y107.943 E41.00159
G1 X183.403 Y108.496 E41.03182
G1 X182.867 Y109.141 E41.07087
G1 X182.641 Y109.373 E41.08595
G1 X182.16 Y109.81 E41.11621
G1 X181.629 Y110.184 E41.14646
G1 X181.056 Y110.49 E41.1767
G1 X180.45 Y110.724 E41.20695
G1 X179.82 Y110.881 E41.23718
G1 X179.175 Y110.96 E41.26744
G1 X178.729 Y110.967 E41.28821
G1 X171.142 Y110.78 E41.6416
G1 X110.731 Y110.82 E44.45459
G1 X105.359 Y111.124 E44.70514
G1 X100.051 Y111.727 E44.95389
G1 X94.738 Y112.638 E45.20489
G1 X92.159 Y113.193 E45.32773
G1 X89.579 Y113.825 E45.45142
G1 X84.413 Y115.326 E45.70192
G1 X79.339 Y117.117 E45.95247
G1 X74.065 Y119.317 E46.21856
G1 X73.452 Y119.53 E46.24878
G1 X72.558 Y119.698 E46.29114
G1 X72.018 Y119.752 E46.31641
G1 X71.491 Y119.778 E46.34097
G1 X49.331 Y119.77 E47.37284
G1 X48.683 Y119.73 E47.40307
G1 X48.044 Y119.61 E47.43334
G1 X47.425 Y119.413 E47.46359
G1 X46.835 Y119.142 E47.49382
G1 X46.359 Y118.853 E47.51975
G1 X43.165 Y116.676 E47.69974
G1 X38.589 Y113.858 E47.94998
G1 X33.848 Y111.299 E48.20085
G1 X29.881 Y109.364 E48.40637
G1 X29.315 Y109.044 E48.43665
G1 X28.794 Y108.656 E48.46689
G1 X28.379 Y108.267 E48.49338
G1 X28.226 Y108.107 E48.50369
G1 X27.807 Y107.611 E48.53392
G1 X27.452 Y107.067 E48.56417
G1 X27.166 Y106.483 E48.59445
G1 X26.954 Y105.869 E48.6247
G1 X26.819 Y105.234 E48.65492
G1 X26.762 Y104.458 E48.69116
G1 X26.762 Y95.539 E49.10646
G1 X26.802 Y94.891 E49.13669
G1 X26.921 Y94.252 E49.16696
G1 X27.118 Y93.633 E49.19721
G1 X27.389 Y93.043 E49.22744
G1 X27.731 Y92.49 E49.25772
G1 X28.3 Y91.814 E49.29886
G1 X28.526 Y91.587 E49.31378
G1 X29.012 Y91.155 E49.34405
G1 X29.547 Y90.787 E49.37429
G1 X30.123 Y90.487 E49.40453
G1 X30.732 Y90.26 E49.43479
M204 S3500
G0 F3000 X32.348 Y95.5
M204 S2000
G1 F1500 X34.39 Y95.5 E49.52988
G1 X34.356 Y95.534 E49.53212
G1 X34.357 Y104.466 E49.94803
G1 X34.391 Y104.5 E49.95027
G1 X32.351 Y104.5 E50.04526
G1 X32.233 Y104.383 E50.053
G1 X32.232 Y95.616 E50.46122
G1 X32.348 Y95.5 E50.46886
M204 S3500
G1 F2400 E43.46886
G0 F3000 X35.411 Y94.839
G0 X176.891 Y94.839
G0 X177.752 Y95.5
M204 S2000
G1 F2400 E50.46886
G1 F1500 X178.779 Y95.5 E50.51668
G1 X178.895 Y95.616 E50.52432
G1 X178.895 Y105.384 E50.97916
G1 X178.779 Y105.5 E50.9868
G1 X177.752 Y105.5 E51.03462
G1 X177.786 Y105.466 E51.03686
G1 X177.786 Y95.534 E51.49934
G1 X177.752 Y95.5 E51.50158
M204 S3500
G0 F3000 X178.266 Y95.98
M204 S2000
G1 F1500 X178.415 Y95.98 E51.50851
G1 X178.415 Y105.02 E51.92945
G1 X178.266 Y105.02 E51.93639
G1 X178.266 Y95.98 E52.35733
M204 S3500
G1 F2400 E45.35733
G0 F3000 X176.891 Y94.839
G0 X35.411 Y94.839
G0 X33.876 Y95.98
M204 S2000
G1 F2400 E52.35733
G1 F1500 X33.877 Y104.02 E52.73171
G1 X32.713 Y104.02 E52.78591
G1 X32.712 Y95.98 E53.16029
G1 X33.876 Y95.98 E53.21449
M204 S3500
G0 F3000 X33.316 Y96.54
M204 S2000
G1 F1500 X33.317 Y103.46 E53.53671
G1 X33.273 Y103.46 E53.53876
G1 X33.272 Y96.54 E53.86098
G1 X33.316 Y96.54 E53.86303
M204 S3500
G1 F2400 E46.86303
G0 F3000 X34.857 Y96.541
G0 X36.362 Y96.54
G0 X50.732 Y103.1
M204 S2000
;TYPE:WALL-INNER
G1 F2400 E53.86303
G1 F1500 X50.452 Y103.1 E53.87607
G1 X36.922 Y103.1 E54.50608
G1 X36.921 Y97.18 E54.78174
G1 X36.921 Y96.9 E54.79478
G1 X37.201 Y96.9 E54.80322
G1 X175.381 Y96.9 E61.23746
G1 X175.381 Y104.1 E61.57272
G1 X156.65 Y104.1 E62.44492
G1 X130.85 Y104.1 E63.64627
G1 X79.17 Y104.1 E66.05271
G1 X71.35 Y111.92 E66.56767
G1 X71.35 Y113.1 E66.62262
G1 X51.011 Y113.1 E67.56969
G1 X50.731 Y113.1 E67.58272
G1 X50.731 Y112.82 E67.59116
G1 X50.732 Y103.38 E68.03073
G1 X50.732 Y103.1 E68.03917
M204 S3500
G0 F3000 X130.85 Y98.1
M204 S2000
G1 F1500 X130.85 Y103.9 E68.30924
G1 X156.65 Y103.9 E68.7383
G1 X156.65 Y98.1 E69.00837
G1 X130.85 Y98.1 E70.20973
M204 S3500
G0 F3000 X131.41 Y98.66
M204 S2000
G1 F1500 X131.41 Y103.34 E70.42765
G1 X156.09 Y103.34 E71.57685
G1 X156.09 Y98.66 E71.79477
G1 X131.41 Y98.66 E72.94397
M204 S3500
G0 F3000 X131.34 Y98.59
G0 X50.242 Y103.59
G0 X50.172 Y103.66
M204 S2000
G1 F1500 X49.892 Y103.66 E72.95701
G1 X36.362 Y103.66 E73.58703
G1 X36.361 Y96.62 E73.91484
G1 X36.361 Y96.34 E73.92788
G1 X36.641 Y96.34 E73.93632
G1 X175.941 Y96.34 E80.42271
G1 X175.941 Y104.66 E80.81012
G1 X79.402 Y104.66 E85.30538
G1 X71.91 Y112.152 E85.79874
G1 X71.91 Y113.445 E85.85895
G1 X71.898 Y113.539 E85.86336
G1 X71.882 Y113.577 E85.86528
G1 X71.857 Y113.609 E85.86717
G1 X71.83 Y113.629 E85.86874
G1 X71.786 Y113.648 E85.87097
G1 X71.694 Y113.66 E85.87529
G1 X50.451 Y113.66 E86.86445
G1 X50.171 Y113.66 E86.87749
G1 X50.171 Y113.38 E86.88593
G1 X50.172 Y103.94 E87.3255
G1 X50.172 Y103.66 E87.33394
M204 S3500
G0 F3000 X49.612 Y104.22
M204 S2000
;TYPE:WALL-OUTER
G1 F1500 X49.332 Y104.22 E87.34697
G1 X35.802 Y104.22 E87.97699
G1 X35.801 Y96.06 E88.35695
G1 X35.801 Y95.78 E88.36999
G1 X36.081 Y95.78 E88.37843
G1 X176.501 Y95.78 E94.91697
G1 X176.501 Y105.22 E95.35654
G1 X79.634 Y105.22 E99.86707
G1 X72.47 Y112.384 E100.33883
G1 X72.47 Y113.479 E100.38982
G1 X72.443 Y113.686 E100.39954
G1 X72.371 Y113.859 E100.40827
G1 X72.256 Y114.009 E100.41707
G1 X72.112 Y114.119 E100.42551
G1 X71.935 Y114.193 E100.43444
G1 X71.728 Y114.22 E100.44416
G1 X49.891 Y114.22 E101.46098
G1 X49.611 Y114.22 E101.47402
G1 X49.611 Y113.94 E101.48246
G1 X49.612 Y104.5 E101.92203
G1 X49.612 Y104.22 E101.93046
M204 S3500
G0 F3000 X49.412 Y104.22
G0 X49.412 Y103.56
G0 X131.97 Y98.56
G0 X131.97 Y99.22
M204 S2000
G1 F1500 X131.97 Y102.78 E102.09623
G1 X155.53 Y102.78 E103.19329
G1 X155.53 Y99.22 E103.35905
G1 X131.97 Y99.22 E104.45611
M204 S3500
G0 F3000 X131.97 Y99.42
G0 X131.31 Y99.42
G0 X130.3 Y97.55
M204 S2000
;TYPE:SKIN
G1 F1500 X130.3 Y103.55 E104.73549
G1 X78.942 Y103.55 E107.12694
G1 X70.8 Y111.692 E107.6631
G1 X70.8 Y112.55 E107.70305
G1 X51.281 Y112.55 E108.61194
G1 X51.282 Y102.55 E109.07758
G1 X37.472 Y102.55 E109.72063
G1 X37.471 Y97.45 E109.95811
G1 X174.831 Y97.45 E116.35417
G1 X174.831 Y103.55 E116.63821
G1 X157.2 Y103.55 E117.45918
G1 X157.2 Y97.55 E117.73857
G1 X130.3 Y97.55 E118.99114
M204 S3500
G0 F3000 X174.57 Y98.542
M204 S2000
G1 F1500 X173.738 Y97.71 E119.04593
G1 X173.668 Y97.64
M204 S3500
G0 F3000 X172.946 Y97.71
M204 S2000
G1 F1500 X174.57 Y99.334 E119.15287
G1 X174.64 Y99.404
M204 S3500
G0 F3000 X174.57 Y100.126
M204 S2000
G1 F1500 X172.154 Y97.71 E119.31197
G1 X172.084 Y97.64
M204 S3500
G0 F3000 X171.362 Y97.71
M204 S2000
G1 F1500 X174.57 Y100.918 E119.52322
G1 X174.64 Y100.988
M204 S3500
G0 F3000 X174.57 Y101.71
M204 S2000
G1 F1500 X170.57 Y97.71 E119.78663
G1 X170.5 Y97.64
M204 S3500
G0 F3000 X169.778 Y97.71
M204 S2000
G1 F1500 X174.57 Y102.502 E120.10219
G1 X174.64 Y102.572
M204 S3500
G0 F3000 X174.566 Y103.289
M204 S2000
G1 F1500 X168.986 Y97.71 E120.46961
G1 X168.916 Y97.64
M204 S3500
G0 F3000 X168.194 Y97.71
M204 S2000
G1 F1500 X173.774 Y103.289 E120.83703
G1 X173.844 Y103.359
M204 S3500
G0 F3000 X172.982 Y103.289
M204 S2000
G1 F1500 X167.402 Y97.71 E121.20445
G1 X167.332 Y97.64
M204 S3500
G0 F3000 X166.61 Y97.71
M204 S2000
G1 F1500 X172.19 Y103.289 E121.57187
G1 X172.26 Y103.359
M204 S3500
G0 F3000 X171.398 Y103.289
M204 S2000
G1 F1500 X165.818 Y97.71 E121.93929
G1 X165.748 Y97.64
M204 S3500
G0 F3000 X165.026 Y97.71
M204 S2000
G1 F1500 X170.606 Y103.289 E122.30671
G1 X170.676 Y103.359
M204 S3500
G0 F3000 X169.814 Y103.289
M204 S2000
G1 F1500 X164.234 Y97.71 E122.67413
G1 X164.164 Y97.64
M204 S3500
G0 F3000 X163.442 Y97.71
M204 S2000
G1 F1500 X169.022 Y103.289 E123.04155
G1 X169.092 Y103.359
M204 S3500
G0 F3000 X168.23 Y103.289
M204 S2000
G1 F1500 X162.65 Y97.71 E123.40897
G1 X162.58 Y97.64
M204 S3500
G0 F3000 X161.858 Y97.71
M204 S2000
G1 F1500 X167.438 Y103.289 E123.77639
G1 X167.508 Y103.359
M204 S3500
G0 F3000 X166.646 Y103.289
M204 S2000
G1 F1500 X161.066 Y97.71 E124.14381
G1 X160.996 Y97.64
M204 S3500
G0 F3000 X160.274 Y97.71
M204 S2000
G1 F1500 X165.854 Y103.289 E124.51123
G1 X165.924 Y103.359
M204 S3500
G0 F3000 X165.062 Y103.289
M204 S2000
G1 F1500 X159.482 Y97.71 E124.87865
G1 X159.412 Y97.64
M204 S3500
G0 F3000 X158.691 Y97.71
M204 S2000
G1 F1500 X164.27 Y103.289 E125.24603
G1 X164.34 Y103.359
M204 S3500
G0 F3000 X163.478 Y103.289
M204 S2000
G1 F1500 X157.899 Y97.71 E125.61342
G1 X157.829 Y97.64
M204 S3500
G0 F3000 X157.459 Y98.062
M204 S2000
G1 F1500 X162.686 Y103.289 E125.95763
G1 X162.756 Y103.359
M204 S3500
G0 F3000 X161.894 Y103.289
M204 S2000
G1 F1500 X157.459 Y98.854 E126.24968
G1 X157.389 Y98.784
M204 S3500
G0 F3000 X157.459 Y99.646
M204 S2000
G1 F1500 X161.102 Y103.289 E126.48958
G1 X161.172 Y103.359
M204 S3500
G0 F3000 X160.311 Y103.289
M204 S2000
G1 F1500 X157.459 Y100.438 E126.67735
G1 X157.389 Y100.368
M204 S3500
G0 F3000 X157.459 Y101.23
M204 S2000
G1 F1500 X159.519 Y103.289 E126.81298
G1 X159.589 Y103.359
M204 S3500
G0 F3000 X158.727 Y103.289
M204 S2000
