;FLAVOR:Marlin
;TIME:6236
;Filament used: 6.49276m
;Layer height: 0.2
;Generated with Cura_SteamEngine 3.2.1
M190 S60
M104 S200
M109 S200
M82 ;absolute extrusion mode
G21 ;metric values
G90 ;absolute positioning
M82 ;set extruder to absolute mode
M107 ;start with the fan off
G28 X0 Y0 ;move X/Y to min endstops
G28 Z0 ;move Z to min endstops
G1 Z15.0 F100 ;move the platform down 15mm
G92 E0 ;zero the extruded length
G1 F200 E3 ;extrude 3mm of feed stock
G92 E0 ;zero the extruded length again
G1 F100
M117 Printing...
G5
;LAYER_COUNT:86
;LAYER:0
M106 S255
M204 S3500
M205 X13 Y13
G0 F3000 X46.366 Y89.843 Z0.2
M204 S2000
;TYPE:SKIRT
G1 F2400 X47.017 Y89.546 E0.03332
G1 X47.697 Y89.324 E0.06663
G1 X48.397 Y89.179 E0.09991
G1 X49.343 Y89.109 E0.14408
G1 X71.786 Y89.113 E1.18912
G1 X72.5 Y89.153 E1.22242
G1 X73.205 Y89.273 E1.25572
G1 X74.208 Y89.59 E1.3047
G1 X78.693 Y91.425 E1.53035
G1 X83.732 Y93.269 E1.7802
G1 X88.81 Y94.808 E2.02728
G1 X94.02 Y96.071 E2.2769
G1 X96.501 Y96.56 E2.39465
G1 X101.775 Y97.372 E2.64312
G1 X107.079 Y97.885 E2.89125
G1 X109.672 Y98.024 E3.01217
G1 X113.479 Y98.1 E3.18947
G1 X173.859 Y98.06 E6.00102
G1 X178.656 Y97.913 E6.22449
G1 X179.371 Y97.931 E6.2578
G1 X180.079 Y98.029 E6.29108
G1 X180.773 Y98.205 E6.32442
G1 X181.442 Y98.457 E6.3577
G1 X182.079 Y98.783 E6.39102
G1 X182.675 Y99.178 E6.42432
G1 X183.304 Y99.712 E6.46274
G1 X183.524 Y99.925 E6.477
G1 X184.009 Y100.45 E6.51028
G1 X184.433 Y101.027 E6.54362
G1 X184.789 Y101.647 E6.57691
G1 X185.075 Y102.303 E6.61023
G1 X185.285 Y102.986 E6.64351
G1 X185.417 Y103.689 E6.67681
G1 X185.472 Y104.516 E6.71541
G1 X185.483 Y114.456 E7.17825
G1 X185.444 Y115.17 E7.21155
G1 X185.325 Y115.875 E7.24484
G1 X185.129 Y116.563 E7.27815
G1 X184.856 Y117.225 E7.3115
G1 X184.512 Y117.852 E7.3448
G1 X184.1 Y118.436 E7.37808
G1 X183.599 Y118.998 E7.41314
G1 X183.371 Y119.225 E7.42812
G1 X182.836 Y119.701 E7.46146
G1 X182.252 Y120.114 E7.49477
G1 X181.626 Y120.459 E7.52805
G1 X180.965 Y120.732 E7.56135
G1 X180.277 Y120.93 E7.59469
G1 X179.572 Y121.05 E7.62799
G1 X178.671 Y121.087 E7.66998
G1 X172.531 Y120.91 E7.956
G1 X41.134 Y120.9 E14.0744
G1 X34.724 Y121.097 E14.37301
G1 X34.499 Y121.1 E14.38349
G1 X32.246 Y121.09 E14.4884
G1 X31.532 Y121.047 E14.52171
G1 X30.827 Y120.924 E14.55503
G1 X30.14 Y120.724 E14.58835
G1 X29.48 Y120.448 E14.62166
G1 X28.855 Y120.1 E14.65497
G1 X28.273 Y119.685 E14.68826
G1 X27.789 Y119.256 E14.71837
G1 X27.562 Y119.033 E14.73319
G1 X27.08 Y118.504 E14.76651
G1 X26.661 Y117.924 E14.79983
G1 X26.309 Y117.302 E14.83311
G1 X26.028 Y116.644 E14.86643
G1 X25.823 Y115.958 E14.89976
G1 X25.696 Y115.255 E14.93303
G1 X25.647 Y114.471 E14.96961
G1 X25.642 Y105.542 E15.38538
G1 X25.682 Y104.827 E15.41872
G1 X25.801 Y104.122 E15.45202
G1 X25.998 Y103.435 E15.48529
G1 X26.27 Y102.773 E15.51862
G1 X26.615 Y102.146 E15.55194
G1 X27.027 Y101.562 E15.58522
G1 X27.507 Y101.023 E15.61883
G1 X27.733 Y100.796 E15.63375
G1 X28.265 Y100.318 E15.66705
G1 X28.847 Y99.902 E15.70036
G1 X29.528 Y99.527 E15.73656
G1 X32.755 Y97.998 E15.90284
G1 X37.464 Y95.5 E16.15105
G1 X41.996 Y92.755 E16.39777
G1 X45.752 Y90.21 E16.60903
G1 X46.366 Y89.843 E16.64234
M204 S3500
G0 F3000 X46.654 Y90.325
M204 S2000
G1 F2400 X47.277 Y90.046 E16.67413
G1 X47.93 Y89.842 E16.70598
G1 X48.601 Y89.716 E16.73777
G1 X49.343 Y89.669 E16.77239
G1 X71.786 Y89.673 E17.81743
G1 X72.468 Y89.713 E17.84924
G1 X73.141 Y89.833 E17.88108
G1 X73.996 Y90.108 E17.9229
G1 X78.505 Y91.953 E18.14975
G1 X83.553 Y93.8 E18.40005
G1 X88.655 Y95.347 E18.6483
G1 X93.894 Y96.616 E18.8993
G1 X96.404 Y97.111 E19.01843
G1 X101.707 Y97.928 E19.26827
G1 X107.042 Y98.443 E19.51785
G1 X109.661 Y98.584 E19.63998
G1 X113.469 Y98.66 E19.81733
G1 X173.876 Y98.62 E22.63013
G1 X178.673 Y98.473 E22.85361
G1 X179.356 Y98.492 E22.88542
G1 X180.032 Y98.59 E22.91723
G1 X180.692 Y98.767 E22.94905
G1 X181.327 Y99.02 E22.98087
G1 X181.928 Y99.345 E23.01269
G1 X182.486 Y99.739 E23.0445
G1 X182.914 Y100.114 E23.07099
G1 X183.134 Y100.327 E23.08525
G1 X183.596 Y100.83 E23.11705
G1 X183.997 Y101.384 E23.1489
G1 X184.33 Y101.981 E23.18073
G1 X184.591 Y102.612 E23.21253
G1 X184.776 Y103.27 E23.24435
G1 X184.883 Y103.945 E23.27618
G1 X184.912 Y104.517 E23.30285
G1 X184.923 Y114.457 E23.76569
G1 X184.884 Y115.139 E23.7975
G1 X184.765 Y115.811 E23.82928
G1 X184.569 Y116.466 E23.86112
G1 X184.297 Y117.093 E23.89294
G1 X183.955 Y117.684 E23.92474
G1 X183.545 Y118.231 E23.95657
G1 X183.203 Y118.602 E23.98006
G1 X182.975 Y118.829 E23.99504
G1 X182.464 Y119.281 E24.02681
G1 X181.903 Y119.672 E24.05865
G1 X181.3 Y119.993 E24.09046
G1 X180.664 Y120.243 E24.12228
G1 X180.003 Y120.416 E24.1541
G1 X179.327 Y120.511 E24.18588
G1 X178.687 Y120.528 E24.2157
G1 X172.512 Y120.35 E24.50335
G1 X41.116 Y120.34 E30.6217
G1 X34.706 Y120.537 E30.92031
G1 X34.501 Y120.54 E30.92986
G1 X32.248 Y120.53 E31.03477
G1 X31.566 Y120.487 E31.06659
G1 X30.894 Y120.365 E31.09839
G1 X30.241 Y120.165 E31.13019
G1 X29.615 Y119.89 E31.16203
G1 X29.026 Y119.544 E31.19384
G1 X28.482 Y119.131 E31.22564
G1 X28.181 Y118.856 E31.24463
G1 X27.954 Y118.633 E31.25945
G1 X27.496 Y118.127 E31.29123
G1 X27.1 Y117.57 E31.32305
G1 X26.771 Y116.971 E31.35487
G1 X26.515 Y116.338 E31.38667
G1 X26.334 Y115.679 E31.41849
G1 X26.232 Y115.003 E31.45032
G1 X26.207 Y114.47 E31.47517
G1 X26.202 Y105.541 E31.89094
G1 X26.242 Y104.859 E31.92275
G1 X26.361 Y104.186 E31.95457
G1 X26.557 Y103.532 E31.98637
G1 X26.829 Y102.905 E32.01819
G1 X27.172 Y102.314 E32.05001
G1 X27.582 Y101.768 E32.0818
G1 X27.903 Y101.418 E32.10392
G1 X28.129 Y101.191 E32.11883
G1 X28.639 Y100.735 E32.15069
G1 X29.198 Y100.343 E32.18248
G1 X29.768 Y100.033 E32.21269
G1 X33.007 Y98.498 E32.37959
G1 X37.739 Y95.988 E32.62901
G1 X42.303 Y93.223 E32.87749
G1 X46.066 Y90.674 E33.08913
G1 X46.654 Y90.325 E33.12097
M204 S3500
G0 F3000 X46.94 Y90.807
M204 S2000
G1 F2400 X47.535 Y90.548 E33.15118
G1 X48.158 Y90.363 E33.18145
G1 X48.799 Y90.257 E33.2117
G1 X49.343 Y90.229 E33.23706
G1 X71.786 Y90.233 E34.2821
G1 X72.434 Y90.273 E34.31233
G1 X73.073 Y90.392 E34.3426
G1 X73.784 Y90.626 E34.37745
G1 X78.309 Y92.477 E34.6051
G1 X83.375 Y94.331 E34.8563
G1 X88.517 Y95.89 E35.1065
G1 X93.773 Y97.164 E35.35832
G1 X96.307 Y97.663 E35.47858
G1 X101.622 Y98.482 E35.72899
G1 X107.028 Y99.004 E35.98189
G1 X109.62 Y99.144 E36.10276
G1 X113.458 Y99.22 E36.28151
G1 X173.86 Y99.18 E39.09408
G1 X178.69 Y99.032 E39.31909
G1 X179.34 Y99.053 E39.34937
G1 X179.981 Y99.152 E39.37957
G1 X180.606 Y99.33 E39.40983
G1 X181.205 Y99.583 E39.44011
G1 X181.767 Y99.908 E39.47034
G1 X182.525 Y100.517 E39.51562
G1 X182.745 Y100.73 E39.52988
G1 X183.183 Y101.209 E39.5601
G1 X183.559 Y101.739 E39.59036
G1 X183.866 Y102.311 E39.62059
G1 X184.102 Y102.917 E39.65087
G1 X184.261 Y103.547 E39.68112
G1 X184.342 Y104.191 E39.71135
G1 X184.352 Y104.517 E39.72654
G1 X184.363 Y114.457 E40.18938
G1 X184.324 Y115.106 E40.21966
G1 X184.205 Y115.744 E40.24988
G1 X184.009 Y116.364 E40.28016
G1 X183.738 Y116.954 E40.31039
G1 X183.397 Y117.507 E40.34064
G1 X182.808 Y118.205 E40.38317
G1 X182.58 Y118.432 E40.39815
G1 X182.093 Y118.861 E40.42837
G1 X181.556 Y119.227 E40.45863
G1 X180.978 Y119.524 E40.48889
G1 X180.369 Y119.748 E40.5191
G1 X179.736 Y119.896 E40.54937
G1 X179.09 Y119.965 E40.57963
G1 X178.703 Y119.968 E40.59765
G1 X172.528 Y119.79 E40.8853
G1 X41.132 Y119.78 E47.00365
G1 X34.689 Y119.978 E47.3038
G1 X34.504 Y119.98 E47.31242
G1 X32.251 Y119.97 E47.41733
G1 X31.602 Y119.927 E47.44761
G1 X30.964 Y119.805 E47.47786
G1 X30.346 Y119.605 E47.50811
G1 X29.757 Y119.332 E47.53834
G1 X29.206 Y118.987 E47.56861
G1 X28.574 Y118.457 E47.60701
G1 X28.347 Y118.234 E47.62183
G1 X27.912 Y117.751 E47.6521
G1 X27.54 Y117.218 E47.68236
G1 X27.237 Y116.644 E47.71259
G1 X27.006 Y116.037 E47.74283
G1 X26.851 Y115.406 E47.77309
G1 X26.767 Y114.47 E47.81684
G1 X26.762 Y105.541 E48.23262
G1 X26.802 Y104.893 E48.26285
G1 X26.921 Y104.254 E48.29311
G1 X27.117 Y103.635 E48.32335
G1 X27.388 Y103.044 E48.35362
G1 X27.729 Y102.492 E48.38383
G1 X28.3 Y101.813 E48.42514
G1 X28.526 Y101.586 E48.44006
G1 X29.012 Y101.154 E48.47034
G1 X29.547 Y100.786 E48.50057
G1 X30.007 Y100.539 E48.52489
G1 X33.277 Y98.99 E48.69337
G1 X38.007 Y96.48 E48.94271
G1 X42.62 Y93.686 E49.19384
G1 X46.381 Y91.138 E49.40537
G1 X46.94 Y90.807 E49.43562
M204 S3500
G0 F3000 X34.391 Y105.5
M204 S2000
G1 F1500 X34.357 Y105.534 E49.43786
G1 X34.357 Y114.466 E49.85377
G1 X34.391 Y114.5 E49.85601
G1 X32.351 Y114.5 E49.951
G1 X32.233 Y114.383 E49.95874
G1 X32.232 Y105.616 E50.36697
G1 X32.348 Y105.5 E50.37461
G1 X34.391 Y105.5 E50.46974
M204 S3500
G1 F2400 E43.46974
G0 F3000 X34.861 Y114.61
G0 X35.412 Y115.161
G0 X176.89 Y115.161
G0 X177.441 Y114.61
G0 X177.752 Y104.5
M204 S2000
G1 F2400 E50.46974
G1 F1500 X178.779 Y104.5 E50.51756
G1 X178.895 Y104.616 E50.5252
G1 X178.894 Y114.383 E50.97999
G1 X178.776 Y114.5 E50.98773
G1 X177.751 Y114.5 E51.03546
G1 X177.785 Y114.466 E51.03769
G1 X177.786 Y104.534 E51.50017
G1 X177.752 Y104.5 E51.50241
M204 S3500
G0 F3000 X178.266 Y104.98
M204 S2000
G1 F1500 X178.415 Y104.98 E51.50935
G1 X178.414 Y114.02 E51.93029
G1 X178.265 Y114.02 E51.93723
G1 X178.266 Y104.98 E52.35817
M204 S3500
G1 F2400 E45.35817
G0 F3000 X177.441 Y114.61
G0 X176.89 Y115.161
G0 X35.412 Y115.161
G0 X34.861 Y114.61
G0 X33.877 Y105.98
M204 S2000
G1 F2400 E52.35817
G1 F1500 X33.877 Y114.02 E52.73254
G1 X32.713 Y114.02 E52.78674
G1 X32.712 Y105.98 E53.16112
G1 X33.877 Y105.98 E53.21537
M204 S3500
G0 F3000 X33.317 Y106.54
M204 S2000
G1 F1500 X33.317 Y113.46 E53.53759
G1 X33.273 Y113.46 E53.53964
G1 X33.272 Y106.54 E53.86186
G1 X33.317 Y106.54 E53.86396
M204 S3500
G1 F2400 E46.86396
G0 F3000 X34.857 Y106.54
G0 X36.382 Y106.54
G0 X50.731 Y106.9
M204 S2000
;TYPE:WALL-INNER
G1 F2400 E53.86396
G1 F1500 X50.731 Y96.9 E54.3296
G1 X71.35 Y96.9 E55.28971
G1 X71.35 Y98.08 E55.34465
G1 X79.17 Y105.9 E55.85961
G1 X130.85 Y105.9 E58.26605
G1 X156.65 Y105.9 E59.46741
G1 X175.101 Y105.9 E60.32656
G1 X175.381 Y105.9 E60.3396
G1 X175.381 Y106.18 E60.34804
G1 X175.38 Y113.1 E60.67026
G1 X36.922 Y113.1 E67.11745
G1 X36.922 Y106.9 E67.40615
G1 X50.731 Y106.9 E68.04915
M204 S3500
G0 F3000 X130.85 Y106.1
M204 S2000
G1 F1500 X130.85 Y111.9 E68.31922
G1 X156.65 Y111.9 E69.52058
G1 X156.65 Y106.1 E69.79065
G1 X130.85 Y106.1 E70.21971
M204 S3500
G0 F3000 X131.41 Y106.66
M204 S2000
G1 F1500 X131.41 Y111.34 E70.43763
G1 X156.09 Y111.34 E71.58683
G1 X156.09 Y106.66 E71.80475
G1 X131.41 Y106.66 E72.95396
M204 S3500
G0 F3000 X131.34 Y106.59
G0 X50.241 Y106.41
G0 X50.171 Y106.34
M204 S2000
G1 F1500 X50.171 Y96.34 E73.4196
G1 X71.696 Y96.34 E74.42189
G1 X71.788 Y96.352 E74.42621
G1 X71.827 Y96.368 E74.42818
G1 X71.859 Y96.392 E74.43004
G1 X71.882 Y96.423 E74.43184
G1 X71.897 Y96.459 E74.43365
G1 X71.91 Y96.562 E74.43849
G1 X71.91 Y97.848 E74.49837
G1 X79.402 Y105.34 E74.99173
G1 X175.661 Y105.34 E79.47395
G1 X175.941 Y105.34 E79.48699
G1 X175.941 Y105.62 E79.49543
G1 X175.94 Y113.66 E79.86981
G1 X36.362 Y113.66 E86.36914
G1 X36.362 Y106.34 E86.70999
G1 X50.171 Y106.34 E87.353
M204 S3500
G0 F3000 X49.611 Y105.78
M204 S2000
;TYPE:WALL-OUTER
G1 F1500 X49.611 Y95.78 E87.81864
G1 X71.729 Y95.78 E88.84855
G1 X71.937 Y95.807 E88.85831
G1 X72.109 Y95.879 E88.86699
G1 X72.257 Y95.992 E88.87566
G1 X72.373 Y96.143 E88.88453
G1 X72.442 Y96.313 E88.89307
G1 X72.47 Y96.527 E88.90312
G1 X72.47 Y97.616 E88.95383
G1 X79.634 Y104.78 E89.42559
G1 X176.221 Y104.78 E93.92309
G1 X176.501 Y104.78 E93.93613
G1 X176.501 Y105.06 E93.94457
G1 X176.5 Y114.22 E94.3711
G1 X35.802 Y114.22 E100.92258
G1 X35.802 Y105.78 E101.31559
G1 X49.611 Y105.78 E101.95859
M204 S3500
G0 F3000 X49.611 Y105.58
G0 X50.271 Y105.58
G0 X131.97 Y106.56
G0 X131.97 Y107.22
M204 S2000
G1 F1500 X131.97 Y110.78 E102.12436
G1 X155.53 Y110.78 E103.22141
G1 X155.53 Y107.22 E103.38718
G1 X131.97 Y107.22 E104.48423
M204 S3500
G0 F3000 X131.97 Y107.42
G0 X131.31 Y107.42
G0 X130.3 Y106.45
M204 S2000
;TYPE:SKIN
G1 F1500 X130.3 Y112.45 E104.76362
G1 X157.2 Y112.45 E106.01619
G1 X157.2 Y106.45 E106.29558
G1 X174.831 Y106.45 E107.11655
G1 X174.83 Y112.55 E107.40059
G1 X37.472 Y112.55 E113.79656
G1 X37.472 Y107.45 E114.03403
G1 X51.281 Y107.45 E114.67704
G1 X51.281 Y97.45 E115.14268
G1 X70.8 Y97.45 E116.05157
G1 X70.8 Y98.308 E116.09152
G1 X78.942 Y106.45 E116.62768
G1 X130.3 Y106.45 E119.01913
M204 S3500
G0 F3000 X156.118 Y106.632
G0 X174.569 Y107.253
M204 S2000
G1 F1500 X174.026 Y106.71 E119.05489
M204 S3500
G0 F3000 X173.234 Y106.71
M204 S2000
G1 F1500 X174.569 Y108.045 E119.1428
G1 X174.639 Y108.115
M204 S3500
G0 F3000 X174.569 Y108.837
M204 S2000
G1 F1500 X172.442 Y106.71 E119.28286
G1 X172.372 Y106.64
M204 S3500
G0 F3000 X171.65 Y106.71
M204 S2000
G1 F1500 X174.569 Y109.629 E119.47509
G1 X174.639 Y109.699
M204 S3500
G0 F3000 X174.569 Y110.421
M204 S2000
G1 F1500 X170.858 Y106.71 E119.71946
G1 X170.788 Y106.64
M204 S3500
G0 F3000 X170.066 Y106.71
M204 S2000
G1 F1500 X174.569 Y111.213 E120.01599
G1 X174.639 Y111.283
M204 S3500
G0 F3000 X174.569 Y112.005
M204 S2000
G1 F1500 X169.274 Y106.71 E120.36468
G1 X169.204 Y106.64
M204 S3500
G0 F3000 X168.483 Y106.71
M204 S2000
G1 F1500 X174.062 Y112.289 E120.73206
G1 X174.132 Y112.359
M204 S3500
G0 F3000 X173.27 Y112.289
M204 S2000
G1 F1500 X167.691 Y106.71 E121.09945
G1 X167.621 Y106.64
M204 S3500
G0 F3000 X166.899 Y106.71
M204 S2000
G1 F1500 X172.478 Y112.289 E121.46684
G1 X172.548 Y112.359
M204 S3500
G0 F3000 X171.686 Y112.289
M204 S2000
G1 F1500 X166.107 Y106.71 E121.83422
G1 X166.037 Y106.64
M204 S3500
G0 F3000 X165.315 Y106.71
M204 S2000
G1 F1500 X170.894 Y112.289 E122.20161
G1 X170.964 Y112.359
M204 S3500
G0 F3000 X170.103 Y112.289
M204 S2000
G1 F1500 X164.523 Y106.71 E122.56903
G1 X164.453 Y106.64
M204 S3500
G0 F3000 X163.731 Y106.71
M204 S2000
G1 F1500 X169.311 Y112.289 E122.93645
G1 X169.381 Y112.359
M204 S3500
G0 F3000 X168.519 Y112.289
M204 S2000
G1 F1500 X162.939 Y106.71 E123.30387
G1 X162.869 Y106.64
M204 S3500
G0 F3000 X162.147 Y106.71
M204 S2000
G1 F1500 X167.727 Y112.289 E123.67129
G1 X167.797 Y112.359
M204 S3500
G0 F3000 X166.935 Y112.289
M204 S2000
G1 F1500 X161.355 Y106.71 E124.03871
G1 X161.285 Y106.64
M204 S3500
G0 F3000 X160.563 Y106.71
M204 S2000
G1 F1500 X166.143 Y112.289 E124.40613
G1 X166.213 Y112.359
M204 S3500
G0 F3000 X165.351 Y112.289
M204 S2000
G1 F1500 X159.771 Y106.71 E124.77355
G1 X159.701 Y106.64
M204 S3500
G0 F3000 X158.979 Y106.71
M204 S2000
G1 F1500 X164.559 Y112.289 E125.14097
G1 X164.629 Y112.359
M204 S3500
G0 F3000 X163.767 Y112.289
M204 S2000
G1 F1500 X158.187 Y106.71 E125.50839
G1 X158.117 Y106.64
M204 S3500
G0 F3000 X157.459 Y106.773
M204 S2000
G1 F1500 X162.975 Y112.289 E125.87162
G1 X163.045 Y112.359
M204 S3500
G0 F3000 X162.183 Y112.289
M204 S2000
G1 F1500 X157.459 Y107.565 E126.18271
G1 X157.389 Y107.495
M204 S3500
G0 F3000 X157.459 Y108.357
M204 S2000
G1 F1500 X161.391 Y112.289 E126.44164
G1 X161.461 Y112.359
M204 S3500
G0 F3000 X160.599 Y112.289
M204 S2000
G1 F1500 X157.459 Y109.149 E126.64841
G1 X157.389 Y109.079
M204 S3500
G0 F3000 X157.459 Y109.941
M204 S2000
G1 F1500 X159.807 Y112.289 E126.80303
G1 X159.877 Y112.359
M204 S3500
G0 F3000 X159.015 Y112.289
M204 S2000
G1 F1500 X157.459 Y110.733 E126.9055
G1 X157.389 Y110.663
M204 S3500
G0 F3000 X157.459 Y111.525
M204 S2000
G1 F1500 X158.223 Y112.289 E126.95581
M204 S3500
G0 F3000 X130.039 Y111.824
M204 S2000
G1 F1500 X124.925 Y106.71 E127.29257
G1 X124.855 Y106.64
M204 S3500
