;FLAVOR:Marlin
;TIME:12214
;Filament used: 11.991m
;Layer height: 0.2
;Generated with Cura_SteamEngine 3.2.1
M190 S60
M104 S200
M109 S200
M82 ;absolute extrusion mode
G21 ;metric values
G90 ;absolute positioning
M82 ;set extruder to absolute mode
M107 ;start with the fan off
G28 X0 Y0 ;move X/Y to min endstops
G28 Z0 ;move Z to min endstops
G1 Z15.0 F100 ;move the platform down 15mm
G92 E0 ;zero the extruded length
G1 F200 E3 ;extrude 3mm of feed stock
G92 E0 ;zero the extruded length again
G1 F100
M117 Printing...
G5
;LAYER_COUNT:123
;LAYER:0
M106 S255
M204 S3500
M205 X13 Y13
G0 F3000 X45.052 Y21.986 Z0.2
M204 S2000
;TYPE:SKIRT
G1 F2400 X45.396 Y21.359 E0.0333
G1 X45.809 Y20.775 E0.06661
G1 X46.293 Y20.232 E0.10048
G1 X52.601 Y13.913 E0.51623
G1 X53.133 Y13.436 E0.5495
G1 X53.716 Y13.022 E0.5828
G1 X54.342 Y12.674 E0.61615
G1 X55.002 Y12.399 E0.64944
G1 X55.689 Y12.199 E0.68276
G1 X56.393 Y12.078 E0.71602
G1 X57.13 Y12.035 E0.7504
G1 X57.453 Y12.035 E0.76544
G1 X58.167 Y12.075 E0.79874
G1 X58.872 Y12.194 E0.83203
G1 X59.56 Y12.392 E0.86537
G1 X60.221 Y12.665 E0.89867
G1 X60.848 Y13.009 E0.93197
G1 X61.432 Y13.422 E0.96528
G1 X61.953 Y13.884 E0.9977
G1 X63.309 Y15.225 E1.0865
G1 X63.464 Y15.384 E1.09684
G1 X68.135 Y20.333 E1.41372
G1 X184.836 Y136.979 E9.09687
G1 X187.423 Y139.348 E9.26021
G1 X187.646 Y139.562 E9.2746
G1 X189.25 Y141.18 E9.38069
G1 X189.724 Y141.716 E9.41401
G1 X190.136 Y142.3 E9.44729
G1 X190.48 Y142.928 E9.48063
G1 X190.752 Y143.589 E9.51391
G1 X190.948 Y144.277 E9.54722
G1 X191.066 Y144.982 E9.58051
G1 X191.105 Y145.686 E9.61334
G1 X191.105 Y146.007 E9.62828
G1 X191.065 Y146.721 E9.66158
G1 X190.946 Y147.426 E9.69488
G1 X190.748 Y148.114 E9.72821
G1 X190.475 Y148.775 E9.76151
G1 X190.131 Y149.402 E9.79481
G1 X189.718 Y149.986 E9.82812
G1 X189.359 Y150.4 E9.85364
G1 X187.709 Y152.148 E9.96556
G1 X184.19 Y156.179 E10.21473
G1 X180.937 Y160.359 E10.46136
G1 X177.933 Y164.708 E10.70748
G1 X175.171 Y169.233 E10.95433
G1 X172.67 Y173.903 E11.20101
G1 X170.445 Y178.693 E11.44694
G1 X168.463 Y183.678 E11.69674
G1 X167.627 Y186.075 E11.81494
G1 X165.887 Y191.862 E12.09633
G1 X165.643 Y192.534 E12.12962
G1 X165.326 Y193.175 E12.16292
G1 X164.939 Y193.777 E12.19624
G1 X164.284 Y194.544 E12.24321
G1 X160.047 Y198.782 E12.52225
G1 X159.514 Y199.259 E12.55556
G1 X158.931 Y199.673 E12.58885
G1 X158.305 Y200.02 E12.62218
G1 X157.645 Y200.294 E12.65546
G1 X156.958 Y200.494 E12.68878
G1 X156.253 Y200.615 E12.72208
G1 X155.539 Y200.657 E12.75539
G1 X154.825 Y200.619 E12.78868
G1 X154.119 Y200.502 E12.822
G1 X153.431 Y200.306 E12.85532
G1 X152.769 Y200.035 E12.88862
G1 X152.141 Y199.692 E12.92194
G1 X151.556 Y199.281 E12.95523
G1 X151.003 Y198.79 E12.98967
G1 X147.596 Y195.395 E13.21363
G1 X143.222 Y191.268 E13.49365
G1 X143.087 Y191.137 E13.50241
G1 X116.128 Y164.165 E15.27814
G1 X115.989 Y164.022 E15.28742
G1 X112.616 Y160.429 E15.5169
G1 X108.215 Y156.002 E15.80757
G1 X107.74 Y155.467 E15.84088
G1 X107.327 Y154.883 E15.87419
G1 X106.983 Y154.256 E15.90749
G1 X106.71 Y153.595 E15.94079
G1 X106.513 Y152.907 E15.97411
G1 X106.394 Y152.202 E16.00741
G1 X106.354 Y151.488 E16.0407
G1 X106.38 Y150.911 E16.0676
G1 X106.621 Y148.257 E16.19169
G1 X106.881 Y142.947 E16.43924
G1 X106.839 Y137.645 E16.68613
G1 X106.498 Y132.35 E16.9332
G1 X105.86 Y127.101 E17.17941
G1 X104.926 Y121.891 E17.42588
G1 X103.707 Y116.779 E17.67059
G1 X102.176 Y111.657 E17.91952
G1 X100.376 Y106.684 E18.16579
G1 X99.391 Y104.284 E18.28659
G1 X97.154 Y99.433 E18.53533
G1 X94.677 Y94.773 E18.78107
G1 X91.918 Y90.226 E19.02872
G1 X88.933 Y85.877 E19.27434
G1 X85.695 Y81.692 E19.52073
G1 X82.215 Y77.683 E19.76793
G1 X78.533 Y73.896 E20.01388
G1 X74.621 Y70.306 E20.26111
G1 X70.459 Y66.897 E20.51162
G1 X67.591 Y64.687 E20.68022
G1 X66.972 Y64.143 E20.71859
G1 X51.905 Y49.076 E21.71078
G1 X51.79 Y48.959 E21.71842
G1 X51.317 Y48.461 E21.7504
G1 X50.854 Y47.915 E21.78373
G1 X50.455 Y47.322 E21.81702
G1 X50.124 Y46.687 E21.85036
G1 X49.867 Y46.02 E21.88364
G1 X49.669 Y45.247 E21.9208
G1 X48.948 Y41.451 E22.10072
G1 X47.719 Y36.301 E22.34726
G1 X46.185 Y31.167 E22.59676
G1 X44.786 Y27.196 E22.79281
G1 X44.586 Y26.509 E22.82612
G1 X44.464 Y25.804 E22.85944
G1 X44.422 Y25.069 E22.89372
G1 X44.422 Y24.754 E22.90839
G1 X44.462 Y24.04 E22.94169
G1 X44.581 Y23.335 E22.97498
G1 X44.779 Y22.647 E23.00832
G1 X45.052 Y21.986 E23.04162
M204 S3500
G0 F3000 X45.611 Y22.118
M204 S2000
G1 F2400 X45.954 Y21.528 E23.0734
G1 X46.364 Y20.981 E23.10523
G1 X46.689 Y20.628 E23.12757
G1 X52.997 Y14.309 E23.54332
G1 X53.507 Y13.855 E23.57512
G1 X54.067 Y13.463 E23.60695
G1 X54.668 Y13.139 E23.63874
G1 X55.304 Y12.888 E23.67058
G1 X55.964 Y12.713 E23.70237
G1 X56.64 Y12.616 E23.73417
G1 X57.13 Y12.595 E23.75701
G1 X57.453 Y12.595 E23.77205
G1 X58.135 Y12.635 E23.80386
G1 X58.808 Y12.754 E23.83569
G1 X59.462 Y12.951 E23.86749
G1 X60.089 Y13.224 E23.89933
G1 X60.679 Y13.567 E23.93111
G1 X61.226 Y13.977 E23.96294
G1 X61.559 Y14.283 E23.984
G1 X62.915 Y15.624 E24.0728
G1 X63.056 Y15.768 E24.08219
G1 X67.727 Y20.718 E24.3991
G1 X184.446 Y137.381 E32.0834
G1 X187.045 Y139.761 E32.2475
G1 X187.248 Y139.956 E32.26061
G1 X188.852 Y141.574 E32.36669
G1 X189.304 Y142.087 E32.39853
G1 X189.693 Y142.649 E32.43036
G1 X190.014 Y143.252 E32.46217
G1 X190.262 Y143.889 E32.494
G1 X190.433 Y144.55 E32.52579
G1 X190.527 Y145.227 E32.55761
G1 X190.545 Y145.686 E32.579
G1 X190.545 Y146.007 E32.59395
G1 X190.505 Y146.689 E32.62576
G1 X190.386 Y147.362 E32.65759
G1 X190.189 Y148.016 E32.68939
G1 X189.916 Y148.643 E32.72123
G1 X189.573 Y149.233 E32.75301
G1 X188.952 Y150.016 E32.79955
G1 X187.288 Y151.779 E32.91243
G1 X183.756 Y155.825 E33.16252
G1 X180.486 Y160.027 E33.41044
G1 X177.462 Y164.404 E33.65817
G1 X174.685 Y168.954 E33.90638
G1 X172.169 Y173.653 E34.15457
G1 X169.934 Y178.464 E34.40159
G1 X167.935 Y183.491 E34.65349
G1 X167.098 Y185.893 E34.77194
G1 X165.351 Y191.701 E35.05435
G1 X165.116 Y192.342 E35.08614
G1 X164.808 Y192.952 E35.11796
G1 X164.431 Y193.522 E35.14978
G1 X163.888 Y194.148 E35.18837
G1 X159.651 Y198.386 E35.46742
G1 X159.14 Y198.84 E35.49925
G1 X158.58 Y199.231 E35.53105
G1 X157.979 Y199.555 E35.56284
G1 X157.343 Y199.806 E35.59468
G1 X156.683 Y199.98 E35.62646
G1 X156.006 Y200.077 E35.65831
G1 X155.323 Y200.094 E35.69012
G1 X154.643 Y200.031 E35.72192
G1 X153.975 Y199.889 E35.75372
G1 X153.327 Y199.669 E35.78558
G1 X152.71 Y199.376 E35.81739
G1 X152.132 Y199.013 E35.84917
G1 X151.399 Y198.394 E35.89384
G1 X147.998 Y195.005 E36.11741
G1 X143.606 Y190.861 E36.39859
G1 X143.484 Y190.742 E36.40652
G1 X116.525 Y163.77 E38.18225
G1 X116.398 Y163.638 E38.19077
G1 X113.043 Y160.065 E38.419
G1 X108.612 Y155.607 E38.71168
G1 X108.16 Y155.095 E38.74348
G1 X107.77 Y154.534 E38.77529
G1 X107.449 Y153.931 E38.8071
G1 X107.2 Y153.295 E38.83891
G1 X107.027 Y152.634 E38.87072
G1 X106.933 Y151.957 E38.90255
G1 X106.938 Y150.961 E38.94893
G1 X107.179 Y148.31 E39.07288
G1 X107.441 Y142.952 E39.32267
G1 X107.399 Y137.623 E39.57081
G1 X107.056 Y132.298 E39.81928
G1 X106.416 Y127.026 E40.06657
G1 X105.475 Y121.787 E40.31443
G1 X104.242 Y116.613 E40.5621
G1 X102.707 Y111.478 E40.81166
G1 X100.903 Y106.493 E41.05851
G1 X99.899 Y104.048 E41.18159
G1 X97.664 Y99.2 E41.43016
G1 X95.157 Y94.484 E41.67886
G1 X92.398 Y89.937 E41.92652
G1 X89.377 Y85.536 E42.17508
G1 X86.131 Y81.34 E42.4221
G1 X82.627 Y77.303 E42.67102
G1 X78.917 Y73.489 E42.91877
G1 X74.997 Y69.89 E43.16657
G1 X70.83 Y66.477 E43.41738
G1 X67.932 Y64.244 E43.58773
G1 X67.367 Y63.748 E43.62274
G1 X52.3 Y48.681 E44.61493
G1 X52.196 Y48.573 E44.62191
G1 X51.723 Y48.075 E44.65389
G1 X51.282 Y47.553 E44.68571
G1 X50.905 Y46.983 E44.71753
G1 X50.597 Y46.373 E44.74935
G1 X50.363 Y45.731 E44.78117
G1 X50.22 Y45.143 E44.80935
G1 X49.498 Y41.343 E44.98946
G1 X48.264 Y36.172 E45.237
G1 X46.715 Y30.986 E45.48903
G1 X45.314 Y27.01 E45.68532
G1 X45.125 Y26.353 E45.71716
G1 X45.014 Y25.679 E45.74896
G1 X44.982 Y25.069 E45.77741
G1 X44.982 Y24.754 E45.79207
G1 X45.022 Y24.072 E45.82389
G1 X45.141 Y23.399 E45.85571
G1 X45.338 Y22.745 E45.88751
G1 X45.611 Y22.118 E45.91936
M204 S3500
G0 F3000 X46.169 Y22.258
M204 S2000
G1 F2400 X46.511 Y21.705 E45.94963
G1 X47.085 Y21.024 E45.99111
G1 X53.393 Y14.705 E46.40686
G1 X53.88 Y14.274 E46.43714
G1 X54.415 Y13.906 E46.46738
G1 X54.992 Y13.607 E46.49764
G1 X55.601 Y13.381 E46.52789
G1 X56.233 Y13.232 E46.55812
G1 X57.13 Y13.155 E46.60004
G1 X57.453 Y13.155 E46.61508
G1 X58.101 Y13.195 E46.64532
G1 X58.74 Y13.314 E46.67558
G1 X59.359 Y13.511 E46.70583
G1 X59.949 Y13.782 E46.73606
G1 X60.502 Y14.124 E46.76634
G1 X61.166 Y14.681 E46.80669
G1 X62.522 Y16.022 E46.8955
G1 X62.649 Y16.152 E46.90396
G1 X67.336 Y21.119 E47.22196
G1 X184.057 Y137.784 E54.90639
G1 X186.667 Y140.174 E55.07118
G1 X186.851 Y140.351 E55.08307
G1 X188.455 Y141.969 E55.18916
G1 X188.883 Y142.457 E55.21938
G1 X189.248 Y142.995 E55.24966
G1 X189.544 Y143.573 E55.27989
G1 X189.767 Y144.183 E55.31014
G1 X189.913 Y144.816 E55.34038
G1 X189.985 Y145.686 E55.38103
G1 X189.985 Y146.007 E55.39598
G1 X189.945 Y146.655 E55.42621
G1 X189.826 Y147.294 E55.45648
G1 X189.629 Y147.913 E55.48673
G1 X189.358 Y148.503 E55.51696
G1 X189.016 Y149.056 E55.54724
G1 X188.545 Y149.631 E55.58185
G1 X186.867 Y151.408 E55.69565
G1 X183.329 Y155.462 E55.9462
G1 X180.044 Y159.684 E56.19529
G1 X176.989 Y164.104 E56.44548
G1 X174.202 Y168.67 E56.69457
G1 X171.668 Y173.403 E56.94456
G1 X169.41 Y178.265 E57.19418
G1 X167.411 Y183.291 E57.44604
G1 X166.561 Y185.731 E57.56635
G1 X164.814 Y191.539 E57.84877
G1 X164.589 Y192.149 E57.87904
G1 X164.291 Y192.726 E57.90928
G1 X163.924 Y193.262 E57.93953
G1 X163.492 Y193.752 E57.96995
G1 X159.255 Y197.99 E58.249
G1 X158.768 Y198.42 E58.27925
G1 X158.232 Y198.788 E58.30952
G1 X157.656 Y199.086 E58.33972
G1 X157.046 Y199.312 E58.37001
G1 X156.414 Y199.461 E58.40025
G1 X155.768 Y199.531 E58.4305
G1 X155.119 Y199.522 E58.46073
G1 X154.475 Y199.432 E58.491
G1 X153.848 Y199.265 E58.52122
G1 X153.245 Y199.021 E58.55151
G1 X152.678 Y198.706 E58.58171
G1 X152.153 Y198.323 E58.61197
G1 X151.794 Y197.997 E58.63455
G1 X148.363 Y194.578 E58.86009
G1 X143.991 Y190.453 E59.13998
G1 X143.88 Y190.346 E59.14716
G1 X116.921 Y163.374 E60.92289
G1 X116.806 Y163.255 E60.93059
G1 X113.435 Y159.665 E61.1599
G1 X109.009 Y155.212 E61.45225
G1 X108.581 Y154.724 E61.48248
G1 X108.215 Y154.187 E61.51274
G1 X107.918 Y153.609 E61.543
G1 X107.694 Y153 E61.57321
G1 X107.547 Y152.367 E61.60347
G1 X107.479 Y151.721 E61.63372
G1 X107.496 Y151.012 E61.66674
G1 X107.737 Y148.365 E61.79051
G1 X108.001 Y142.957 E62.04262
G1 X107.959 Y137.6 E62.29208
G1 X107.614 Y132.249 E62.54176
G1 X106.97 Y126.946 E62.7905
G1 X106.022 Y121.664 E63.04039
G1 X104.786 Y116.478 E63.28863
G1 X103.24 Y111.309 E63.53986
G1 X101.421 Y106.281 E63.78883
G1 X100.416 Y103.833 E63.91205
G1 X98.16 Y98.939 E64.16298
G1 X95.645 Y94.209 E64.41243
G1 X92.866 Y89.627 E64.66196
G1 X89.837 Y85.215 E64.91116
G1 X86.553 Y80.971 E65.16103
G1 X83.046 Y76.931 E65.41014
G1 X79.311 Y73.09 E65.65961
G1 X75.371 Y69.473 E65.90866
G1 X71.148 Y66.015 E66.16282
G1 X68.274 Y63.8 E66.33178
G1 X67.763 Y63.352 E66.36342
G1 X52.696 Y48.285 E67.35561
G1 X52.602 Y48.187 E67.36193
G1 X52.129 Y47.689 E67.39391
G1 X51.711 Y47.192 E67.42415
G1 X51.358 Y46.646 E67.45443
G1 X51.074 Y46.062 E67.48466
G1 X50.864 Y45.447 E67.51493
G1 X50.77 Y45.038 E67.53447
G1 X50.048 Y41.239 E67.71453
G1 X48.799 Y36.004 E67.96514
G1 X47.253 Y30.828 E68.21667
G1 X45.842 Y26.824 E68.41435
G1 X45.664 Y26.199 E68.44461
G1 X45.565 Y25.557 E68.47486
G1 X45.542 Y25.069 E68.49761
G1 X45.542 Y24.754 E68.51228
G1 X45.582 Y24.106 E68.54251
G1 X45.701 Y23.467 E68.57278
G1 X45.898 Y22.848 E68.60302
G1 X46.169 Y22.258 E68.63326
M204 S3500
G1 F2400 E61.63326
G0 F3000 X55.404 Y44.46
G0 X71.388 Y60.442
G0 X140.974 Y123.412
M204 S2000
;TYPE:SUPPORT
G1 F2400 E68.63326
G1 F1500 X147.916 Y130.351 E69.0903
G1 X124.692 Y153.57 E70.61947
G1 X124.05 Y152.928 E70.66175
G1 X122.425 Y151.28 E70.76952
G1 X122.124 Y151.002 E70.7886
G1 X117.752 Y146.625 E71.07667
G1 X140.974 Y123.412 E72.60558
M204 S3500
G0 F3000 X138.528 Y126.167
M204 S2000
G1 F1500 X146.934 Y131.02 E73.05755
M204 S3500
G0 F3000 X145.635 Y128.382
M204 S2000
G1 F1500 X123.564 Y141.124 E74.24424
M204 S3500
G0 F3000 X120.954 Y143.734
M204 S2000
G1 F1500 X129.362 Y148.588 E74.69631
M204 S3500
G0 F3000 X128 Y149.952
M204 S2000
G1 F1500 X128 Y136.691 E75.31379
M204 S3500
G0 F3000 X126.813 Y137.878
M204 S2000
G1 F1500 X135.219 Y142.732 E75.76578
M204 S3500
G0 F3000 X136 Y141.954
M204 S2000
G1 F1500 X136 Y128.695 E76.38318
M204 S3500
G0 F3000 X132.67 Y132.023
M204 S2000
G1 F1500 X141.076 Y136.876 E76.83515
M204 S3500
G0 F3000 X144 Y133.956
M204 S2000
G1 F1500 X144 Y126.748 E77.17078
M204 S3500
G0 F3000 X133.087 Y144.864
M204 S2000
G1 F1500 X122.451 Y151.005 E77.74266
M204 S3500
G0 F3000 X120 Y148.564
M204 S2000
G1 F1500 X120 Y144.688 E77.92314
M204 S3500
G1 F2400 E70.92314
G0 F3000 X124.602 Y153.931
G0 X124.687 Y155.079
M204 S2000
G1 F2400 E77.92314
G1 F1500 X151.923 Y182.344 E79.71764
G1 X147.831 Y186.436 E79.9871
G1 X120.588 Y159.179 E81.78156
G1 X124.687 Y155.079 E82.05152
M204 S3500
G0 F3000 X126.943 Y157.649
M204 S2000
G1 F1500 X122.14 Y160.422 E82.30976
M204 S3500
G0 F3000 X128 Y158.707
M204 S2000
G1 F1500 X128 Y166.283 E82.66253
M204 S3500
G0 F3000 X127.994 Y166.279
M204 S2000
G1 F1500 X132.796 Y163.507 E82.92072
M204 S3500
G0 F3000 X136 Y166.716
M204 S2000
G1 F1500 X136 Y174.287 E83.27325
M204 S3500
G0 F3000 X133.849 Y172.137
M204 S2000
G1 F1500 X138.648 Y169.366 E83.53129
M204 S3500
G0 F3000 X144 Y174.724
M204 S2000
G1 F1500 X144 Y182.292 E83.88369
M204 S3500
G0 F3000 X145.558 Y183.852
M204 S2000
G1 F1500 X150.353 Y181.083 E84.14152
M204 S3500
G0 F3000 X145.867 Y176.592
M204 S2000
G1 F1500 X127.984 Y166.268 E85.10303
M204 S3500
G0 F3000 X139.704 Y177.994
M204 S2000
G1 F1500 X144.501 Y175.225 E85.36094
M204 S3500
G0 F3000 X170.343 Y157.051
M204 S2000
G1 F1500 X170.393 Y157.051 E85.36327
G1 X173.173 Y154.27 E85.54637
G1 X173.173 Y154.221 E85.54865
G1 X173.504 Y154.553 E85.57048
G1 X174.615 Y155.664 E85.64364
G1 X174.615 Y155.831 E85.65142
G1 X171.953 Y158.493 E85.82672
G1 X171.786 Y158.493 E85.83449
G1 X170.531 Y157.239 E85.9171
G1 X170.343 Y157.051 E85.92948
M204 S3500
G0 F3000 X180.243 Y147.152
M204 S2000
G1 F1500 X180.293 Y147.152 E85.93181
G1 X183.072 Y144.371 E86.11488
G1 X183.072 Y144.32 E86.11725
G1 X184.515 Y145.764 E86.21231
G1 X184.515 Y145.93 E86.22004
G1 X181.853 Y148.595 E86.39544
G1 X181.685 Y148.595 E86.40326
G1 X180.243 Y147.152 E86.49825
M204 S3500
G1 F2400 E79.49825
G0 F3000 X182.816 Y143.911
G0 X182.816 Y143.131
G0 X60.009 Y20.324
G0 X59.229 Y20.324
G0 X52.455 Y26.434
M204 S2000
G1 F2400 E86.49825
G1 F1500 X51.012 Y24.991 E86.59328
G1 X51.012 Y24.827 E86.60091
G1 X57.209 Y18.625 E87.00916
G1 X57.377 Y18.625 E87.01698
G1 X58.82 Y20.068 E87.11201
G1 X58.77 Y20.068 E87.11433
G1 X52.455 Y26.385 E87.53025
G1 X52.455 Y26.434 E87.53254
M204 S3500
G0 F3000 X52.43 Y25.731
M204 S2000
G1 F1500 X51.608 Y24.909 E87.58667
G1 X57.293 Y19.219 E87.9612
G1 X58.117 Y20.043 E88.01546
G1 X52.43 Y25.731 E88.38999
M204 S3500
G0 F3000 X52.43 Y24.939
M204 S2000
G1 F1500 X52.4 Y24.909 E88.39197
G1 X57.293 Y20.011 E88.71434
G1 X57.325 Y20.043 E88.71645
G1 X52.43 Y24.939 E89.03883
M204 S3500
G1 F2400 E82.03883
G0 F3000 X59.229 Y20.324
G0 X60.009 Y20.324
G0 X182.816 Y143.131
G0 X182.816 Y143.833
G0 X180.946 Y147.177
M204 S2000
G1 F2400 E89.03883
