;FLAVOR:Marlin
;TIME:12141
;Filament used: 12.0161m
;Layer height: 0.2
;Generated with Cura_SteamEngine 3.2.1
M190 S60
M104 S200
M109 S200
M82 ;absolute extrusion mode
G21 ;metric values
G90 ;absolute positioning
M82 ;set extruder to absolute mode
M107 ;start with the fan off
G28 X0 Y0 ;move X/Y to min endstops
G28 Z0 ;move Z to min endstops
G1 Z15.0 F100 ;move the platform down 15mm
G92 E0 ;zero the extruded length
G1 F200 E3 ;extrude 3mm of feed stock
G92 E0 ;zero the extruded length again
G1 F100
M117 Printing...
G5
;LAYER_COUNT:123
;LAYER:0
M106 S255
M204 S3500
M205 X13 Y13
G0 F3000 X21.956 Y45.06 Z0.2
M204 S2000
;TYPE:SKIRT
G1 F2400 X22.616 Y44.785 E0.03329
G1 X23.303 Y44.585 E0.06661
G1 X24.007 Y44.464 E0.09987
G1 X24.744 Y44.421 E0.13425
G1 X25.07 Y44.421 E0.14943
G1 X25.784 Y44.461 E0.18273
G1 X26.489 Y44.58 E0.21602
G1 X27.137 Y44.764 E0.24739
G1 X33.22 Y46.84 E0.54668
G1 X38.293 Y48.235 E0.79167
G1 X45.361 Y49.692 E1.1277
G1 X46.052 Y49.875 E1.16099
G1 X46.719 Y50.134 E1.1943
G1 X47.353 Y50.467 E1.22765
G1 X47.945 Y50.867 E1.26092
G1 X48.597 Y51.437 E1.30124
G1 X64.503 Y67.359 E2.34921
G1 X65.071 Y68.01 E2.38944
G1 X67.583 Y71.316 E2.58278
G1 X71.021 Y75.42 E2.83207
G1 X72.759 Y77.324 E2.95211
G1 X76.512 Y81.103 E3.20011
G1 X80.467 Y84.658 E3.44773
G1 X84.579 Y87.954 E3.69312
G1 X88.9 Y91.032 E3.94016
G1 X93.377 Y93.853 E4.18656
G1 X98.009 Y96.42 E4.43315
G1 X102.771 Y98.716 E4.67932
G1 X107.661 Y100.741 E4.92577
G1 X112.681 Y102.496 E5.17339
G1 X117.798 Y103.965 E5.42128
G1 X120.317 Y104.574 E5.54196
G1 X122.871 Y105.115 E5.66352
G1 X128.15 Y106.001 E5.91277
G1 X133.39 Y106.579 E6.15825
G1 X138.687 Y106.862 E6.40525
G1 X143.951 Y106.845 E6.65037
G1 X151.061 Y106.368 E6.98218
G1 X151.776 Y106.36 E7.01548
G1 X152.488 Y106.432 E7.0488
G1 X153.187 Y106.583 E7.0821
G1 X153.865 Y106.811 E7.11541
G1 X154.513 Y107.114 E7.14872
G1 X155.124 Y107.486 E7.18203
G1 X155.689 Y107.925 E7.21534
G1 X155.984 Y108.198 E7.23406
G1 X161.327 Y113.47 E7.58357
G1 X163.336 Y115.317 E7.71065
G1 X163.528 Y115.501 E7.72303
G1 X190.843 Y142.797 E9.52115
G1 X190.963 Y142.92 E9.52915
G1 X195.425 Y147.626 E9.83112
G1 X198.793 Y151.007 E10.05334
G1 X199.268 Y151.541 E10.08661
G1 X199.681 Y152.125 E10.11992
G1 X200.027 Y152.751 E10.15323
G1 X200.3 Y153.412 E10.18653
G1 X200.498 Y154.1 E10.21986
G1 X200.618 Y154.805 E10.25316
G1 X200.658 Y155.519 E10.28646
G1 X200.618 Y156.233 E10.31976
G1 X200.5 Y156.938 E10.35305
G1 X200.303 Y157.626 E10.38637
G1 X200.03 Y158.287 E10.41967
G1 X199.686 Y158.914 E10.45297
G1 X199.273 Y159.499 E10.48632
G1 X198.785 Y160.047 E10.52048
G1 X194.554 Y164.28 E10.79917
G1 X194.02 Y164.757 E10.83251
G1 X193.437 Y165.172 E10.86583
G1 X192.812 Y165.518 E10.8991
G1 X191.852 Y165.89 E10.94704
G1 X186.349 Y167.527 E11.21438
G1 X183.943 Y168.36 E11.33293
G1 X178.965 Y170.321 E11.58207
G1 X174.162 Y172.535 E11.82833
G1 X169.486 Y175.019 E12.07488
G1 X164.95 Y177.769 E12.32188
G1 X160.601 Y180.754 E12.5675
G1 X156.411 Y183.994 E12.81413
G1 X152.361 Y187.508 E13.06381
G1 X150.402 Y189.358 E13.18927
G1 X149.856 Y189.819 E13.22255
G1 X149.261 Y190.217 E13.25588
G1 X148.626 Y190.545 E13.28916
G1 X147.958 Y190.801 E13.32247
G1 X147.265 Y190.98 E13.3558
G1 X146.557 Y191.081 E13.3891
G1 X146.008 Y191.105 E13.41469
G1 X145.69 Y191.105 E13.4295
G1 X144.976 Y191.065 E13.4628
G1 X144.271 Y190.946 E13.49609
G1 X143.583 Y190.748 E13.52942
G1 X142.922 Y190.475 E13.56272
G1 X142.295 Y190.131 E13.59603
G1 X141.711 Y189.718 E13.62933
G1 X141.197 Y189.263 E13.6613
G1 X139.874 Y187.959 E13.7478
G1 X139.713 Y187.794 E13.75853
G1 X134.996 Y182.797 E14.0785
G1 X20.329 Y68.13 E21.62952
G1 X14.009 Y62.076 E22.03704
G1 X13.521 Y61.553 E22.07035
G1 X13.094 Y60.979 E22.10366
G1 X12.734 Y60.361 E22.13696
G1 X12.445 Y59.706 E22.1703
G1 X12.231 Y59.024 E22.20358
G1 X12.095 Y58.322 E22.23688
G1 X12.036 Y57.454 E22.27739
G1 X12.036 Y57.14 E22.29201
G1 X12.076 Y56.426 E22.32531
G1 X12.195 Y55.721 E22.3586
G1 X12.393 Y55.033 E22.39194
G1 X12.666 Y54.372 E22.42524
G1 X13.01 Y53.745 E22.45854
G1 X13.423 Y53.161 E22.49185
G1 X13.907 Y52.618 E22.52572
G1 X20.215 Y46.299 E22.94147
G1 X20.747 Y45.822 E22.97474
G1 X21.33 Y45.408 E23.00804
G1 X21.956 Y45.06 E23.04139
M204 S3500
G0 F3000 X22.282 Y45.525
M204 S2000
G1 F2400 X22.918 Y45.274 E23.07323
G1 X23.578 Y45.099 E23.10502
G1 X24.254 Y45.002 E23.13682
G1 X24.744 Y44.981 E23.15966
G1 X25.07 Y44.981 E23.17484
G1 X25.752 Y45.021 E23.20665
G1 X26.425 Y45.14 E23.23847
G1 X26.956 Y45.294 E23.26422
G1 X33.053 Y47.375 E23.5642
G1 X38.156 Y48.778 E23.81064
G1 X45.248 Y50.24 E24.14781
G1 X45.908 Y50.417 E24.17963
G1 X46.543 Y50.67 E24.21146
G1 X47.144 Y50.995 E24.24328
G1 X47.702 Y51.388 E24.27506
G1 X48.201 Y51.833 E24.30619
G1 X64.107 Y67.755 E25.35415
G1 X64.625 Y68.349 E25.39085
G1 X67.144 Y71.664 E25.58472
G1 X70.606 Y75.797 E25.83577
G1 X72.344 Y77.701 E25.95581
G1 X76.135 Y81.519 E26.20634
G1 X80.091 Y85.075 E26.45403
G1 X84.254 Y88.411 E26.70244
G1 X88.582 Y91.494 E26.94987
G1 X93.091 Y94.336 E27.19806
G1 X97.737 Y96.91 E27.44538
G1 X102.558 Y99.234 E27.69458
G1 X107.46 Y101.265 E27.94166
G1 X112.498 Y103.025 E28.19015
G1 X117.653 Y104.506 E28.4399
G1 X120.213 Y105.125 E28.56254
G1 X122.781 Y105.668 E28.68476
G1 X128.05 Y106.553 E28.93354
G1 X133.35 Y107.138 E29.18183
G1 X138.677 Y107.422 E29.43023
G1 X143.975 Y107.405 E29.67693
G1 X151.098 Y106.927 E30.00935
G1 X151.782 Y106.921 E30.0412
G1 X152.461 Y106.995 E30.07301
G1 X153.127 Y107.148 E30.10483
G1 X153.77 Y107.378 E30.13663
G1 X154.382 Y107.681 E30.16842
G1 X154.955 Y108.054 E30.20026
G1 X155.591 Y108.597 E30.2392
G1 X160.936 Y113.871 E30.58885
G1 X162.957 Y115.729 E30.71668
G1 X163.132 Y115.897 E30.72798
G1 X190.447 Y143.193 E32.52609
G1 X190.557 Y143.305 E32.5334
G1 X195.038 Y148.031 E32.83666
G1 X198.396 Y151.402 E33.05821
G1 X198.849 Y151.913 E33.09001
G1 X199.239 Y152.474 E33.12183
G1 X199.561 Y153.077 E33.15366
G1 X199.81 Y153.713 E33.18546
G1 X199.984 Y154.374 E33.21729
G1 X200.079 Y155.05 E33.24908
G1 X200.094 Y155.733 E33.28089
G1 X200.03 Y156.414 E33.31274
G1 X199.886 Y157.082 E33.34456
G1 X199.666 Y157.728 E33.37633
G1 X199.371 Y158.345 E33.40818
G1 X199.007 Y158.923 E33.43998
G1 X198.388 Y159.652 E33.48452
G1 X194.157 Y163.885 E33.7632
G1 X193.647 Y164.339 E33.79499
G1 X193.087 Y164.73 E33.8268
G1 X192.485 Y165.053 E33.85861
G1 X191.692 Y165.354 E33.8981
G1 X186.169 Y166.997 E34.16642
G1 X183.746 Y167.836 E34.28581
G1 X178.74 Y169.808 E34.53635
G1 X173.908 Y172.035 E34.78409
G1 X169.21 Y174.531 E35.03181
G1 X164.66 Y177.289 E35.27956
G1 X160.26 Y180.309 E35.52806
G1 X156.059 Y183.558 E35.77535
G1 X151.994 Y187.085 E36.02595
G1 X150.018 Y188.951 E36.15251
G1 X149.494 Y189.39 E36.18434
G1 X148.923 Y189.765 E36.21615
G1 X148.312 Y190.071 E36.24796
G1 X147.67 Y190.304 E36.27977
G1 X147.005 Y190.459 E36.31156
G1 X146.008 Y190.545 E36.35816
G1 X145.69 Y190.545 E36.37297
G1 X145.008 Y190.505 E36.40478
G1 X144.335 Y190.386 E36.4366
G1 X143.681 Y190.189 E36.46841
G1 X143.054 Y189.916 E36.50025
G1 X142.464 Y189.573 E36.53203
G1 X141.917 Y189.163 E36.56386
G1 X141.59 Y188.864 E36.58449
G1 X140.267 Y187.56 E36.67099
G1 X140.12 Y187.41 E36.68077
G1 X135.419 Y182.43 E36.99966
G1 X20.669 Y67.68 E44.55614
G1 X14.396 Y61.671 E44.96063
G1 X13.931 Y61.171 E44.99242
G1 X13.528 Y60.619 E45.02425
G1 X13.192 Y60.024 E45.05607
G1 X12.928 Y59.394 E45.08787
G1 X12.739 Y58.738 E45.11966
G1 X12.628 Y58.063 E45.15151
G1 X12.596 Y57.454 E45.17991
G1 X12.596 Y57.14 E45.19453
G1 X12.636 Y56.458 E45.22634
G1 X12.755 Y55.785 E45.25817
G1 X12.952 Y55.131 E45.28997
G1 X13.225 Y54.504 E45.32181
G1 X13.568 Y53.914 E45.35359
G1 X13.978 Y53.367 E45.38542
G1 X14.303 Y53.014 E45.40777
G1 X20.611 Y46.695 E45.82352
G1 X21.121 Y46.241 E45.85532
G1 X21.681 Y45.849 E45.88715
G1 X22.282 Y45.525 E45.91894
M204 S3500
G0 F3000 X22.606 Y45.993
M204 S2000
G1 F2400 X23.215 Y45.767 E45.94919
G1 X23.847 Y45.618 E45.97942
G1 X24.744 Y45.541 E46.02134
G1 X25.07 Y45.541 E46.03652
G1 X25.718 Y45.581 E46.06675
G1 X26.357 Y45.7 E46.09702
G1 X26.775 Y45.824 E46.11732
G1 X32.89 Y47.911 E46.41819
G1 X38.03 Y49.324 E46.66641
G1 X45.135 Y50.789 E47.00421
G1 X45.762 Y50.959 E47.03446
G1 X46.363 Y51.204 E47.06468
G1 X46.93 Y51.522 E47.09495
G1 X47.453 Y51.907 E47.12519
G1 X47.804 Y52.228 E47.14734
G1 X63.71 Y68.15 E48.1953
G1 X64.179 Y68.687 E48.2285
G1 X66.712 Y72.021 E48.42347
G1 X70.171 Y76.151 E48.67432
G1 X71.952 Y78.101 E48.79729
G1 X75.741 Y81.917 E49.04769
G1 X79.736 Y85.507 E49.29779
G1 X83.909 Y88.852 E49.54682
G1 X88.274 Y91.961 E49.79636
G1 X92.812 Y94.821 E50.04613
G1 X97.487 Y97.412 E50.29502
G1 X102.315 Y99.739 E50.54458
G1 X107.275 Y101.794 E50.79458
G1 X112.319 Y103.557 E51.04338
G1 X117.508 Y105.046 E51.29475
G1 X120.101 Y105.674 E51.41898
G1 X122.664 Y106.216 E51.54097
G1 X127.985 Y107.11 E51.79221
G1 X133.313 Y107.697 E52.0418
G1 X138.648 Y107.983 E52.29058
G1 X143.999 Y107.965 E52.53975
G1 X151.136 Y107.486 E52.87282
G1 X151.785 Y107.482 E52.90304
G1 X152.43 Y107.559 E52.93329
G1 X153.061 Y107.714 E52.96355
G1 X153.668 Y107.945 E52.99379
G1 X154.243 Y108.249 E53.02407
G1 X154.775 Y108.621 E53.0543
G1 X155.197 Y108.996 E53.08059
G1 X160.53 Y114.258 E53.42945
G1 X162.578 Y116.141 E53.55899
G1 X162.736 Y116.293 E53.5692
G1 X190.051 Y143.589 E55.36732
G1 X190.15 Y143.691 E55.37393
G1 X194.611 Y148.395 E55.67581
G1 X197.999 Y151.797 E55.89937
G1 X198.428 Y152.285 E55.92963
G1 X198.794 Y152.821 E55.95985
G1 X199.092 Y153.399 E55.99013
G1 X199.316 Y154.009 E56.02039
G1 X199.464 Y154.641 E56.05061
G1 X199.533 Y155.287 E56.08087
G1 X199.522 Y155.937 E56.11114
G1 X199.431 Y156.58 E56.14138
G1 X199.262 Y157.207 E56.17161
G1 X199.018 Y157.809 E56.20186
G1 X198.701 Y158.376 E56.23211
G1 X198.317 Y158.9 E56.26236
G1 X197.992 Y159.256 E56.2848
G1 X193.761 Y163.489 E56.56349
G1 X193.275 Y163.919 E56.5937
G1 X192.739 Y164.286 E56.62395
G1 X192.162 Y164.585 E56.65421
G1 X191.533 Y164.817 E56.68543
G1 X185.983 Y166.468 E56.95506
G1 X183.561 Y167.307 E57.07441
G1 X178.52 Y169.293 E57.3267
G1 X173.668 Y171.529 E57.57546
G1 X168.928 Y174.047 E57.82539
G1 X164.351 Y176.821 E58.0746
G1 X159.939 Y179.85 E58.3238
G1 X155.69 Y183.135 E58.57388
G1 X151.625 Y186.663 E58.82451
G1 X149.633 Y188.544 E58.95209
G1 X149.134 Y188.96 E58.98234
G1 X148.588 Y189.312 E59.01259
G1 X148.003 Y189.594 E59.04283
G1 X147.388 Y189.802 E59.07306
G1 X146.751 Y189.932 E59.10333
G1 X146.008 Y189.985 E59.13802
G1 X145.69 Y189.985 E59.15282
G1 X145.042 Y189.945 E59.18305
G1 X144.403 Y189.826 E59.21332
G1 X143.784 Y189.629 E59.24357
G1 X143.194 Y189.358 E59.2738
G1 X142.641 Y189.016 E59.30408
G1 X141.984 Y188.465 E59.344
G1 X140.661 Y187.161 E59.4305
G1 X140.527 Y187.025 E59.43939
G1 X135.826 Y182.045 E59.75828
G1 X21.046 Y67.265 E67.31674
G1 X14.784 Y61.267 E67.7205
G1 X14.343 Y60.79 E67.75075
G1 X13.964 Y60.262 E67.78102
G1 X13.653 Y59.691 E67.81129
G1 X13.415 Y59.087 E67.84152
G1 X13.252 Y58.458 E67.87178
G1 X13.168 Y57.814 E67.90202
G1 X13.156 Y57.454 E67.91879
G1 X13.156 Y57.14 E67.93341
G1 X13.196 Y56.492 E67.96365
G1 X13.315 Y55.853 E67.99391
G1 X13.512 Y55.234 E68.02416
G1 X13.783 Y54.644 E68.05439
G1 X14.125 Y54.091 E68.08467
G1 X14.699 Y53.41 E68.12614
G1 X21.007 Y47.091 E68.5419
G1 X21.494 Y46.66 E68.57218
G1 X22.029 Y46.292 E68.60241
G1 X22.606 Y45.993 E68.63267
M204 S3500
G1 F2400 E61.63267
G0 F3000 X44.46 Y55.404
G0 X60.442 Y71.388
G0 X125.387 Y138.999
M204 S2000
;TYPE:SUPPORT
G1 F2400 E68.63267
G1 F1500 X146.631 Y117.777 E70.0309
G1 X150.154 Y121.296 E70.26277
G1 X150.173 Y121.296 E70.26365
G1 X150.935 Y122.058 E70.31383
G1 X150.935 Y122.072 E70.31448
G1 X153.998 Y125.137 E70.51625
G1 X154.628 Y125.137 E70.54559
G1 X159.187 Y120.577 E70.84584
G1 X186.432 Y147.834 E72.64036
G1 X182.321 Y151.945 E72.91108
G1 X156.679 Y126.293 E74.59998
G1 X156.208 Y126.098 E74.62372
G1 X152.163 Y126.098 E74.81207
G1 X132.313 Y145.928 E76.11857
G1 X125.387 Y138.999 E76.57475
M204 S3500
G0 F3000 X126.264 Y139.566
M204 S2000
G1 F1500 X152.797 Y124.247 E78.00138
M204 S3500
G0 F3000 X152 Y123.45
M204 S2000
G1 F1500 X152 Y125.949 E78.11774
M204 S3500
G0 F3000 X154.026 Y125.877
M204 S2000
G1 F1500 X144.398 Y120.318 E78.63542
M204 S3500
G0 F3000 X144 Y120.716
M204 S2000
G1 F1500 X144 Y133.942 E79.25128
M204 S3500
G0 F3000 X146.926 Y131.016
M204 S2000
G1 F1500 X138.538 Y126.173 E79.70229
M204 S3500
G0 F3000 X136 Y128.707
M204 S2000
G1 F1500 X136 Y141.934 E80.31819
M204 S3500
G0 F3000 X135.205 Y142.724
M204 S2000
G1 F1500 X126.817 Y137.881 E80.7692
M204 S3500
G0 F3000 X128 Y136.699
M204 S2000
G1 F1500 X128 Y141.302 E80.98353
M204 S3500
G0 F3000 X132.118 Y145.423
M204 S2000
G1 F1500 X133.034 Y144.894 E81.03279
M204 S3500
G0 F3000 X141.066 Y136.87
M204 S2000
G1 F1500 X132.677 Y132.027 E81.48384
M204 S3500
G0 F3000 X145.485 Y119.23
M204 S2000
G1 F1500 X146.937 Y118.392 E81.5619
M204 S3500
G1 F2400 E74.5619
G0 F3000 X153.931 Y124.602
G0 X154.633 Y124.602
G0 X160 Y121.702
M204 S2000
G1 F2400 E81.5619
G1 F1500 X160 Y129.303 E81.91584
M204 S3500
G0 F3000 X160.013 Y129.318
M204 S2000
G1 F1500 X164.832 Y126.536 E82.17494
M204 S3500
G0 F3000 X168 Y129.705
M204 S2000
G1 F1500 X168 Y137.306 E82.52887
M204 S3500
G0 F3000 X165.868 Y135.176
M204 S2000
G1 F1500 X170.687 Y132.393 E82.78799
M204 S3500
G0 F3000 X176 Y137.709
M204 S2000
G1 F1500 X176 Y145.31 E83.14193
M204 S3500
G0 F3000 X177.578 Y146.89
M204 S2000
G1 F1500 X182.396 Y144.108 E83.40099
M204 S3500
G0 F3000 X184 Y145.713
M204 S2000
G1 F1500 X184 Y149.955 E83.59851
M204 S3500
G0 F3000 X182.436 Y151.517
M204 S2000
G1 F1500 X181.888 Y151.201 E83.62797
M204 S3500
G0 F3000 X178.023 Y139.732
M204 S2000
G1 F1500 X160.055 Y129.358 E84.59407
M204 S3500
G0 F3000 X171.723 Y141.033
M204 S2000
G1 F1500 X176.542 Y138.25 E84.8532
M204 S3500
G0 F3000 X157.05 Y170.341
M204 S2000
G1 F1500 X158.005 Y171.296 E84.91608
G1 X158.493 Y171.785 E84.94825
G1 X158.493 Y171.953 E84.95608
G1 X155.831 Y174.615 E85.13137
G1 X155.662 Y174.615 E85.13924
G1 X154.364 Y173.318 E85.22468
G1 X154.219 Y173.173 E85.23423
G1 X154.27 Y173.173 E85.23661
G1 X157.05 Y170.392 E85.41971
G1 X157.05 Y170.341 E85.42208
M204 S3500
G0 F3000 X147.151 Y180.242
M204 S2000
G1 F1500 X147.297 Y180.387 E85.43166
G1 X148.594 Y181.685 E85.51711
G1 X148.594 Y181.852 E85.52488
G1 X145.931 Y184.515 E85.70025
G1 X145.763 Y184.515 E85.70807
G1 X144.525 Y183.277 E85.78959
G1 X144.525 Y183.275 E85.78969
G1 X144.322 Y183.072 E85.80306
G1 X144.371 Y183.072 E85.80534
G1 X147.151 Y180.292 E85.9884
G1 X147.151 Y180.242 E85.99073
M204 S3500
G1 F2400 E78.99073
G0 F3000 X143.911 Y182.816
G0 X143.131 Y182.816
G0 X20.325 Y60.01
G0 X20.325 Y59.23
G0 X26.435 Y52.455
M204 S2000
G1 F2400 E85.99073
G1 F1500 X26.385 Y52.455 E85.99306
G1 X20.069 Y58.771 E86.40898
G1 X20.069 Y58.821 E86.41131
G1 X19.393 Y58.145 E86.45582
G1 X19.077 Y57.828 E86.47667
G1 X18.626 Y57.377 E86.50637
G1 X18.626 Y57.213 E86.514
G1 X24.823 Y51.011 E86.92225
G1 X24.991 Y51.011 E86.93007
G1 X26.435 Y52.455 E87.02516
M204 S3500
G0 F3000 X25.732 Y52.43
M204 S2000
G1 F1500 X20.044 Y58.118 E87.39973
G1 X19.732 Y57.806 E87.42027
G1 X19.416 Y57.489 E87.44111
G1 X19.222 Y57.295 E87.45389
G1 X24.907 Y51.605 E87.82842
G1 X25.732 Y52.43 E87.88275
M204 S3500
G0 F3000 X24.94 Y52.43
M204 S2000
G1 F1500 X20.044 Y57.326 E88.20516
G1 X20.014 Y57.295 E88.20717
G1 X24.907 Y52.397 E88.52954
G1 X24.94 Y52.43 E88.53172
M204 S3500
G1 F2400 E81.53172
G0 F3000 X20.325 Y59.23
G0 X20.325 Y60.01
G0 X143.131 Y182.816
G0 X143.833 Y182.816
G0 X147.176 Y180.946
M204 S2000
