;FLAVOR:Marlin
;TIME:7683
;Filament used: 6.44368m
;Layer height: 0.2
;Generated with Cura_SteamEngine 3.2.1
M190 S60
M104 S200
M109 S200
M82 ;absolute extrusion mode
G21 ;metric values
G90 ;absolute positioning
M82 ;set extruder to absolute mode
M107 ;start with the fan off
G28 X0 Y0 ;move X/Y to min endstops
G28 Z0 ;move Z to min endstops
G1 Z15.0 F100 ;move the platform down 15mm
G92 E0 ;zero the extruded length
G1 F200 E3 ;extrude 3mm of feed stock
G92 E0 ;zero the extruded length again
G1 F100
M117 Printing...
G5
;LAYER_COUNT:41
;LAYER:0
M106 S255
M204 S3500
M205 X13 Y13
G0 F3000 X30.635 Y85.582 Z0.2
M204 S2000
;TYPE:SKIRT
G1 F2400 X31.326 Y85.396 E0.03332
G1 X32.033 Y85.289 E0.06662
G1 X32.639 Y85.26 E0.09487
G1 X62.328 Y85.261 E1.47731
G1 X62.523 Y85.264 E1.48639
G1 X68.628 Y85.45 E1.7708
G1 X144.209 Y85.41 E5.29017
G1 X147.842 Y85.256 E5.45949
G1 X148.115 Y85.25 E5.4722
G1 X177.362 Y85.26 E6.83406
G1 X178.076 Y85.3 E6.86736
G1 X178.782 Y85.42 E6.90071
G1 X179.469 Y85.617 E6.93399
G1 X180.13 Y85.891 E6.96731
G1 X180.757 Y86.236 E7.00063
G1 X181.341 Y86.649 E7.03394
G1 X181.866 Y87.115 E7.06662
G1 X182.097 Y87.344 E7.08177
G1 X182.576 Y87.875 E7.11507
G1 X182.993 Y88.456 E7.14837
G1 X183.342 Y89.081 E7.1817
G1 X183.619 Y89.74 E7.21499
G1 X183.822 Y90.426 E7.2483
G1 X183.946 Y91.13 E7.28159
G1 X183.991 Y91.889 E7.31699
G1 X183.99 Y118.111 E8.538
G1 X183.95 Y118.825 E8.5713
G1 X183.831 Y119.531 E8.60463
G1 X183.633 Y120.218 E8.63793
G1 X183.36 Y120.879 E8.67123
G1 X183.015 Y121.506 E8.70455
G1 X182.603 Y122.09 E8.73783
G1 X182.135 Y122.617 E8.77065
G1 X181.909 Y122.845 E8.7856
G1 X181.378 Y123.324 E8.8189
G1 X180.797 Y123.74 E8.85217
G1 X180.173 Y124.09 E8.88548
G1 X179.514 Y124.367 E8.91877
G1 X178.828 Y124.569 E8.95207
G1 X178.123 Y124.694 E8.98541
G1 X177.364 Y124.739 E9.02081
G1 X147.675 Y124.74 E10.40326
G1 X147.48 Y124.737 E10.41234
G1 X141.361 Y124.55 E10.6974
G1 X65.913 Y124.59 E14.21057
G1 X62.829 Y124.723 E14.35431
G1 X62.555 Y124.729 E14.36707
G1 X32.641 Y124.74 E15.75999
G1 X31.927 Y124.7 E15.79329
G1 X31.222 Y124.581 E15.82659
G1 X30.534 Y124.384 E15.85991
G1 X29.873 Y124.111 E15.89321
G1 X29.246 Y123.767 E15.92651
G1 X28.662 Y123.354 E15.95982
G1 X28.123 Y122.875 E15.99339
G1 X27.894 Y122.647 E16.00844
G1 X27.417 Y122.115 E16.04171
G1 X27.001 Y121.533 E16.07502
G1 X26.653 Y120.908 E16.10833
G1 X26.377 Y120.248 E16.14165
G1 X26.176 Y119.562 E16.17493
G1 X26.054 Y118.857 E16.20825
G1 X26.01 Y118.112 E16.243
G1 X26.01 Y91.889 E17.46405
G1 X26.05 Y91.175 E17.49735
G1 X26.169 Y90.47 E17.53064
G1 X26.367 Y89.782 E17.56398
G1 X26.64 Y89.121 E17.59728
G1 X26.984 Y88.494 E17.63058
G1 X27.397 Y87.91 E17.66389
G1 X27.71 Y87.546 E17.68624
G1 X27.783 Y87.467 E17.69125
G1 X28.047 Y87.197 E17.70883
G1 X28.203 Y87.047 E17.71891
G1 X28.746 Y86.58 E17.75226
G1 X29.337 Y86.178 E17.78554
G1 X29.969 Y85.844 E17.81883
G1 X30.635 Y85.582 E17.85215
M204 S3500
G0 F3000 X30.927 Y86.077
M204 S2000
G1 F2400 X31.591 Y85.915 E17.88398
G1 X32.269 Y85.832 E17.91578
G1 X32.639 Y85.82 E17.93302
G1 X62.328 Y85.821 E19.31547
G1 X62.506 Y85.824 E19.32376
G1 X68.611 Y86.01 E19.60816
G1 X144.209 Y85.97 E23.12832
G1 X147.866 Y85.815 E23.29876
G1 X148.115 Y85.81 E23.31036
G1 X177.362 Y85.82 E24.67222
G1 X178.044 Y85.86 E24.70403
G1 X178.717 Y85.98 E24.73586
G1 X179.371 Y86.177 E24.76767
G1 X179.997 Y86.449 E24.79945
G1 X180.588 Y86.793 E24.83129
G1 X181.134 Y87.203 E24.86309
G1 X181.472 Y87.513 E24.88444
G1 X181.703 Y87.742 E24.89959
G1 X182.159 Y88.25 E24.93137
G1 X182.552 Y88.809 E24.96319
G1 X182.878 Y89.409 E24.99499
G1 X183.132 Y90.044 E25.02683
G1 X183.309 Y90.703 E25.05861
G1 X183.409 Y91.379 E25.09043
G1 X183.431 Y91.889 E25.1142
G1 X183.43 Y118.111 E26.3352
G1 X183.39 Y118.793 E26.36701
G1 X183.271 Y119.466 E26.39884
G1 X183.074 Y120.12 E26.43064
G1 X182.801 Y120.747 E26.46249
G1 X182.458 Y121.337 E26.49426
G1 X182.048 Y121.884 E26.5261
G1 X181.738 Y122.222 E26.54745
G1 X181.512 Y122.45 E26.5624
G1 X181.003 Y122.907 E26.59425
G1 X180.445 Y123.3 E26.62603
G1 X179.844 Y123.626 E26.65787
G1 X179.21 Y123.88 E26.68967
G1 X178.55 Y124.057 E26.72149
G1 X177.874 Y124.157 E26.75331
G1 X177.364 Y124.179 E26.77708
G1 X147.675 Y124.18 E28.15952
G1 X147.497 Y124.177 E28.16781
G1 X141.378 Y123.99 E28.45287
G1 X65.912 Y124.03 E31.96689
G1 X62.805 Y124.164 E32.1117
G1 X62.555 Y124.169 E32.12334
G1 X32.641 Y124.18 E33.51626
G1 X31.959 Y124.14 E33.54807
G1 X31.286 Y124.021 E33.5799
G1 X30.632 Y123.824 E33.6117
G1 X30.005 Y123.552 E33.64353
G1 X29.415 Y123.209 E33.6753
G1 X28.868 Y122.799 E33.70714
G1 X28.519 Y122.479 E33.72918
G1 X28.29 Y122.251 E33.74423
G1 X27.834 Y121.741 E33.77609
G1 X27.442 Y121.182 E33.80788
G1 X27.117 Y120.581 E33.83969
G1 X26.865 Y119.945 E33.87155
G1 X26.689 Y119.285 E33.90335
G1 X26.591 Y118.609 E33.93516
G1 X26.57 Y118.112 E33.95832
G1 X26.57 Y91.889 E35.17938
G1 X26.61 Y91.207 E35.21119
G1 X26.729 Y90.534 E35.24301
G1 X26.926 Y89.88 E35.27482
G1 X27.199 Y89.253 E35.30666
G1 X27.542 Y88.663 E35.33844
G1 X28.121 Y87.926 E35.38208
G1 X28.194 Y87.847 E35.38709
G1 X28.435 Y87.6 E35.40316
G1 X28.591 Y87.45 E35.41323
G1 X29.111 Y87.006 E35.44507
G1 X29.678 Y86.626 E35.47686
G1 X30.286 Y86.315 E35.50866
G1 X30.927 Y86.077 E35.54049
M204 S3500
G0 F3000 X31.214 Y86.576
M204 S2000
G1 F2400 X31.849 Y86.439 E35.57074
G1 X32.639 Y86.38 E35.60763
G1 X62.328 Y86.381 E36.99007
G1 X62.489 Y86.383 E36.99757
G1 X68.627 Y86.57 E37.28352
G1 X144.233 Y86.53 E40.80405
G1 X147.889 Y86.375 E40.97444
G1 X148.115 Y86.37 E40.98497
G1 X177.362 Y86.38 E42.34683
G1 X178.01 Y86.42 E42.37706
G1 X178.649 Y86.54 E42.40733
G1 X179.268 Y86.737 E42.43758
G1 X179.858 Y87.008 E42.46781
G1 X180.41 Y87.35 E42.49805
G1 X181.077 Y87.91 E42.53861
G1 X181.308 Y88.139 E42.55375
G1 X181.741 Y88.624 E42.58403
G1 X182.11 Y89.158 E42.61425
G1 X182.411 Y89.734 E42.64451
G1 X182.639 Y90.342 E42.67475
G1 X182.791 Y90.974 E42.70502
G1 X182.871 Y91.889 E42.74778
G1 X182.87 Y118.111 E43.96879
G1 X182.83 Y118.76 E43.99907
G1 X182.711 Y119.398 E44.02929
G1 X182.514 Y120.017 E44.05954
G1 X182.243 Y120.607 E44.08977
G1 X181.901 Y121.16 E44.12005
G1 X181.34 Y121.828 E44.16066
G1 X181.114 Y122.056 E44.17561
G1 X180.629 Y122.488 E44.20586
G1 X180.095 Y122.858 E44.23611
G1 X179.519 Y123.159 E44.26637
G1 X178.911 Y123.387 E44.29661
G1 X178.279 Y123.539 E44.32687
G1 X177.364 Y123.619 E44.36964
G1 X147.675 Y123.62 E45.75209
G1 X147.514 Y123.618 E45.75958
G1 X141.362 Y123.43 E46.04618
G1 X65.887 Y123.47 E49.56061
G1 X62.781 Y123.604 E49.70538
G1 X62.555 Y123.609 E49.7159
G1 X32.641 Y123.62 E51.10882
G1 X31.993 Y123.58 E51.13905
G1 X31.354 Y123.461 E51.16932
G1 X30.735 Y123.265 E51.19955
G1 X30.144 Y122.994 E51.22983
G1 X29.592 Y122.652 E51.26007
G1 X28.914 Y122.082 E51.30131
G1 X28.685 Y121.854 E51.31636
G1 X28.253 Y121.368 E51.34664
G1 X27.885 Y120.833 E51.37687
G1 X27.585 Y120.257 E51.40711
G1 X27.358 Y119.648 E51.43738
G1 X27.208 Y119.016 E51.46762
G1 X27.13 Y118.112 E51.50987
G1 X27.13 Y91.889 E52.73093
G1 X27.17 Y91.241 E52.76116
G1 X27.289 Y90.602 E52.79142
G1 X27.486 Y89.983 E52.82167
G1 X27.757 Y89.393 E52.8519
G1 X28.099 Y88.84 E52.88218
G1 X28.532 Y88.306 E52.91419
G1 X28.605 Y88.227 E52.9192
G1 X28.823 Y88.004 E52.93372
G1 X28.979 Y87.854 E52.9438
G1 X29.474 Y87.433 E52.97406
G1 X30.017 Y87.077 E53.00429
G1 X30.6 Y86.79 E53.03455
G1 X31.214 Y86.576 E53.06483
M204 S3500
G0 F3000 X32.75 Y91.93
M204 S2000
;TYPE:SUPPORT
G1 F1500 X62.02 Y91.931 E54.42776
G1 X62.02 Y118.07 E55.6449
G1 X32.75 Y118.07 E57.00784
G1 X32.68 Y118 E57.01245
G1 X32.68 Y92 E58.22311
G1 X32.75 Y91.93 E58.22772
M204 S3500
G0 F3000 X32.899 Y92.895
M204 S2000
G1 F1500 X61.8 Y109.581 E59.78166
M204 S3500
G0 F3000 X61.799 Y112.121
M204 S2000
G1 F1500 X51.878 Y117.849 E60.3151
M204 S3500
G0 F3000 X48 Y117.85
M204 S2000
G1 F1500 X48 Y92.151 E61.51175
M204 S3500
G0 F3000 X48.391 Y92.15
M204 S2000
G1 F1500 X32.9 Y101.093 E62.34465
M204 S3500
G0 F3000 X32.899 Y102.132
M204 S2000
G1 F1500 X60.121 Y117.849 E63.80832
M204 S3500
G0 F3000 X56 Y117.85
M204 S2000
G1 F1500 X56 Y92.151 E65.00497
M204 S3500
G0 F3000 X61.798 Y93.646
M204 S2000
G1 F1500 X32.901 Y110.33 E66.55871
M204 S3500
G0 F3000 X32.899 Y111.37
M204 S2000
G1 F1500 X44.121 Y117.849 E67.16209
M204 S3500
G0 F3000 X40 Y117.85
M204 S2000
G1 F1500 X40 Y92.151 E68.35874
M204 S3500
G0 F3000 X47.609 Y92.15
M204 S2000
G1 F1500 X61.799 Y100.343 E69.12171
M204 S3500
G0 F3000 X61.799 Y102.884
M204 S2000
G1 F1500 X35.878 Y117.849 E70.51541
M204 S3500
G1 F2400 E63.51541
G0 F3000 X62.89 Y118.811
G0 X147.11 Y118.811
G0 X147.98 Y118.07
M204 S2000
G1 F2400 E70.51541
G1 F1500 X147.98 Y91.93 E71.7326
G1 X177.25 Y91.93 E73.09553
G1 X177.32 Y92 E73.10014
G1 X177.32 Y118 E74.31081
G1 X177.25 Y118.07 E74.31542
G1 X147.98 Y118.07 E75.67836
M204 S3500
G0 F3000 X148.199 Y117.664
M204 S2000
G1 F1500 X177.099 Y100.978 E77.23226
M204 S3500
G0 F3000 X177.1 Y102.249
M204 S2000
G1 F1500 X159.608 Y92.15 E78.17276
M204 S3500
G0 F3000 X160 Y92.15
M204 S2000
G1 F1500 X160 Y117.85 E79.36946
M204 S3500
G0 F3000 X163.877 Y117.85
M204 S2000
G1 F1500 X177.099 Y110.216 E80.08038
M204 S3500
G0 F3000 X177.1 Y111.486
M204 S2000
G1 F1500 X148.198 Y94.8 E81.63436
M204 S3500
G0 F3000 X148.199 Y99.189
M204 S2000
G1 F1500 X160.391 Y92.15 E82.2899
M204 S3500
G0 F3000 X168 Y92.15
M204 S2000
G1 F1500 X168 Y117.85 E83.4866
M204 S3500
G0 F3000 X172.121 Y117.849
M204 S2000
G1 F1500 X148.198 Y104.037 E84.77288
M204 S3500
G0 F3000 X148.199 Y108.426
M204 S2000
G1 F1500 X176.391 Y92.149 E86.28871
M204 S3500
G0 F3000 X176 Y92.15
M204 S2000
G1 F1500 X176 Y117.85 E87.48541
M204 S3500
G0 F3000 X156.12 Y117.849
M204 S2000
G1 F1500 X148.199 Y113.275 E87.91132
M204 S3500
G0 F3000 X152 Y117.85
M204 S2000
G1 F1500 X152 Y92.15 E89.10802
M204 S3500
G0 F3000 X175.609 Y92.15
M204 S2000
G1 F1500 X177.1 Y93.011 E89.18819
M204 S3500
G1 F2400 E82.18819
G0 F3000 X147.665 Y93.011
G0 X146.14 Y93.011
G0 X145.6 Y116.75
M204 S2000
;TYPE:WALL-INNER
G1 F2400 E89.18819
G1 F1500 X64.4 Y116.75 E92.96921
G1 X64.4 Y93.25 E94.06346
G1 X145.6 Y93.25 E97.84448
G1 X145.6 Y116.75 E98.93873
M204 S3500
G0 F3000 X129.351 Y108.746
G0 X128.636 Y108.35
G0 X126.716 Y106.928
M204 S2000
G1 F1500 X127.327 Y107.895 E98.992
G1 X128.157 Y108.678 E99.04513
G1 X129.155 Y109.233 E99.0983
G1 X130.262 Y109.522 E99.15158
G1 X131.404 Y109.525 E99.20475
G1 X132.514 Y109.247 E99.25804
G1 X133.517 Y108.699 E99.31126
G1 X134.354 Y107.918 E99.36456
G1 X134.98 Y106.932 E99.41895
G1 X135.329 Y105.855 E99.47166
G1 X135.402 Y104.714 E99.5249
G1 X135.188 Y103.591 E99.57813
G1 X134.702 Y102.557 E99.63133
G1 X133.971 Y101.675 E99.68468
G1 X133.048 Y101.003 E99.73784
G1 X131.983 Y100.582 E99.79116
G1 X130.85 Y100.44 E99.84433
G1 X129.717 Y100.582 E99.8975
G1 X128.652 Y101.003 E99.95083
G1 X127.729 Y101.675 E100.00399
G1 X126.998 Y102.557 E100.05733
G1 X126.512 Y103.591 E100.11053
G1 X126.298 Y104.713 E100.16372
G1 X126.37 Y105.842 E100.2164
G1 X126.716 Y106.928 E100.26947
M204 S3500
G0 F3000 X79.64 Y109.004
G0 X78.63 Y109.001
G0 X77.651 Y108.746
G0 X76.936 Y108.35
G0 X75.016 Y106.928
M204 S2000
G1 F1500 X75.627 Y107.895 E100.32273
G1 X76.457 Y108.678 E100.37587
G1 X77.455 Y109.233 E100.42904
G1 X78.562 Y109.522 E100.48231
G1 X79.704 Y109.525 E100.53549
G1 X80.814 Y109.247 E100.58877
G1 X81.817 Y108.699 E100.64199
G1 X82.654 Y107.918 E100.6953
G1 X83.28 Y106.932 E100.74968
G1 X83.629 Y105.855 E100.8024
G1 X83.702 Y104.714 E100.85564
G1 X83.488 Y103.591 E100.90887
G1 X83.002 Y102.557 E100.96207
G1 X82.271 Y101.675 E101.01541
G1 X81.348 Y101.003 E101.06858
G1 X80.283 Y100.582 E101.1219
G1 X79.15 Y100.44 E101.17507
G1 X78.017 Y100.582 E101.22824
G1 X76.952 Y101.003 E101.28157
G1 X76.029 Y101.675 E101.33473
G1 X75.298 Y102.557 E101.38807
G1 X74.812 Y103.591 E101.44127
G1 X74.598 Y104.713 E101.49446
G1 X74.67 Y105.842 E101.54714
G1 X75.016 Y106.928 E101.60021
M204 S3500
G0 F3000 X76.767 Y108.255
G0 X77.651 Y108.746
G0 X78.63 Y109.001
G0 X79.64 Y109.004
G0 X80.622 Y108.758
G0 X81.341 Y108.366
G0 X82.296 Y107.62
G0 X82.22 Y107.557
M204 S2000
G1 F1500 X82.769 Y106.692 E101.64791
G1 X83.075 Y105.749 E101.69408
G1 X83.139 Y104.749 E101.74074
G1 X82.951 Y103.765 E101.78739
G1 X82.525 Y102.859 E101.834
G1 X81.885 Y102.086 E101.88073
G1 X81.076 Y101.498 E101.9273
G1 X80.143 Y101.129 E101.97402
G1 X79.15 Y101.004 E102.02063
G1 X78.157 Y101.129 E102.06723
G1 X77.224 Y101.498 E102.11395
G1 X76.415 Y102.086 E102.16052
G1 X75.775 Y102.859 E102.20725
G1 X75.349 Y103.765 E102.25386
G1 X75.161 Y104.748 E102.30047
G1 X75.224 Y105.737 E102.34661
G1 X75.528 Y106.689 E102.39315
G1 X76.063 Y107.536 E102.4398
G1 X76.79 Y108.223 E102.48637
G1 X77.665 Y108.709 E102.53298
G1 X78.635 Y108.962 E102.57966
G1 X79.636 Y108.965 E102.62627
G1 X80.608 Y108.721 E102.67293
G1 X81.487 Y108.241 E102.71957
G1 X82.22 Y107.557 E102.76625
M204 S3500
G0 F3000 X82.296 Y107.62
G0 X131.34 Y109.004
G0 X132.322 Y108.758
G0 X133.041 Y108.366
G0 X133.996 Y107.62
G0 X133.92 Y107.557
M204 S2000
G1 F1500 X134.469 Y106.692 E102.81396
G1 X134.775 Y105.749 E102.86012
G1 X134.839 Y104.749 E102.90678
G1 X134.651 Y103.765 E102.95343
G1 X134.225 Y102.859 E103.00005
G1 X133.585 Y102.086 E103.04678
G1 X132.776 Y101.498 E103.09334
G1 X131.843 Y101.129 E103.14006
G1 X130.85 Y101.004 E103.18667
G1 X129.857 Y101.129 E103.23327
G1 X128.924 Y101.498 E103.27999
G1 X128.115 Y102.086 E103.32656
G1 X127.475 Y102.859 E103.37329
G1 X127.049 Y103.765 E103.41991
G1 X126.861 Y104.748 E103.46651
G1 X126.924 Y105.737 E103.51265
G1 X127.228 Y106.689 E103.55919
G1 X127.763 Y107.536 E103.60584
G1 X128.49 Y108.223 E103.65241
G1 X129.365 Y108.709 E103.69902
G1 X130.335 Y108.962 E103.7457
G1 X131.336 Y108.965 E103.79231
G1 X132.308 Y108.721 E103.83897
G1 X133.187 Y108.241 E103.88561
G1 X133.92 Y107.557 E103.93229
M204 S3500
G0 F3000 X133.996 Y107.62
G0 X146.09 Y117.24
G0 X146.16 Y117.31
M204 S2000
G1 F1500 X63.84 Y117.31 E107.76546
G1 X63.84 Y92.69 E108.91187
G1 X146.16 Y92.69 E112.74503
G1 X146.16 Y117.31 E113.89144
M204 S3500
G0 F3000 X146.72 Y117.87
M204 S2000
;TYPE:WALL-OUTER
G1 F1500 X63.28 Y117.87 E117.77676
G1 X63.28 Y92.13 E118.97532
G1 X146.72 Y92.13 E122.86063
G1 X146.72 Y117.87 E124.0592
M204 S3500
G0 F3000 X146.52 Y117.87
G0 X146.09 Y117.24
G0 X133.936 Y107.678
G0 X133.486 Y107.196
M204 S2000
G1 F1500 X133.958 Y106.452 E124.10022
G1 X134.221 Y105.643 E124.13983
G1 X134.276 Y104.784 E124.17992
G1 X134.114 Y103.94 E124.21993
G1 X133.748 Y103.161 E124.26001
G1 X133.199 Y102.498 E124.30009
G1 X132.504 Y101.993 E124.3401
G1 X131.703 Y101.676 E124.38021
G1 X130.85 Y101.568 E124.42024
G1 X129.997 Y101.676 E124.46028
G1 X129.196 Y101.993 E124.50039
G1 X128.501 Y102.498 E124.5404
G1 X127.952 Y103.161 E124.58048
G1 X127.586 Y103.94 E124.62056
G1 X127.424 Y104.784 E124.66057
G1 X127.478 Y105.632 E124.70014
G1 X127.74 Y106.45 E124.74014
G1 X128.199 Y107.178 E124.78021
G1 X128.823 Y107.768 E124.8202
G1 X129.575 Y108.185 E124.86024
G1 X130.408 Y108.402 E124.90032
G1 X131.268 Y108.405 E124.94037
G1 X132.102 Y108.195 E124.98041
G1 X132.857 Y107.783 E125.02046
G1 X133.486 Y107.196 E125.06052
M204 S3500
G0 F3000 X133.593 Y107.028
G0 X134.149 Y107.382
G0 X133.21 Y108.273
G0 X132.322 Y108.758
G0 X131.34 Y109.004
G0 X82.236 Y107.678
G0 X81.786 Y107.196
M204 S2000
G1 F1500 X82.258 Y106.452 E125.10155
G1 X82.521 Y105.643 E125.14116
G1 X82.576 Y104.784 E125.18124
G1 X82.414 Y103.94 E125.22126
G1 X82.048 Y103.161 E125.26134
G1 X81.499 Y102.498 E125.30142
G1 X80.804 Y101.993 E125.34142
